; generated by Slic3r Prusa Edition 1.42.0-alpha5+ on 2019-04-03 at 19:15:49

; 

; external perimeters extrusion width = 0.45mm
; perimeters extrusion width = 0.45mm
; infill extrusion width = 0.45mm
; solid infill extrusion width = 0.45mm
; top infill extrusion width = 0.40mm
; first layer extrusion width = 0.42mm

M73 P0 R269
M73 Q0 S277
M201 X1000 Y1000 Z1000 E5000 ; sets maximum accelerations, mm/sec^2
M203 X200 Y200 Z12 E120 ; sets maximum feedrates, mm/sec
M204 P1250 R1250 T1250 ; sets acceleration (P, T) and retract acceleration (R), mm/sec^2
M205 X8.00 Y8.00 Z0.40 E1.50 ; sets the jerk limits, mm/sec
M205 S0 T0 ; sets the minimum extruding and travel feed rate, mm/sec
M107
M115 U3.5.1 ; tell printer latest fw version
M83  ; extruder relative mode
M104 S215 ; set extruder temp
M140 S60 ; set bed temp
M190 S60 ; wait for bed temp
M109 S215 ; wait for extruder temp
G28 W ; home all without mesh bed level
G80 ; mesh bed leveling
G1 Y-3.0 F1000.0 ; go outside print area
G92 E0.0
G1 X60.0 E9.0  F1000.0 ; intro line
M73 Q0 S277
M73 P0 R268
G1 X100.0 E12.5  F1000.0 ; intro line
G92 E0.0
M221 S95
M900 K30; Filament gcode
G21 ; set units to millimeters
G90 ; use absolute coordinates
M83 ; use relative distances for extrusion
;BEFORE_LAYER_CHANGE
G92 E0.0
;0.2


G1 E-0.80000 F2100.00000
G1 Z0.600 F10800.000
;AFTER_LAYER_CHANGE
;0.2
G1 X42.793 Y99.311
G1 Z0.200
G1 E0.80000 F2100.00000
M204 S1000
G1 F1200
G1 X43.151 Y98.819 E0.01908
G1 X43.630 Y98.446 E0.01902
G1 X204.796 Y5.396 E5.83501
G1 X205.325 Y5.178 E0.01794
G1 X205.893 Y5.105 E0.01794
G1 X206.722 Y5.270 E0.02653
G1 X207.427 Y5.738 E0.02653
G1 X207.904 Y6.442 E0.02664
G1 X208.076 Y7.271 E0.02653
G1 X208.076 Y193.355 E5.83455
G1 X208.009 Y193.887 E0.01680
G1 X207.817 Y194.384 E0.01669
G1 X207.250 Y195.064 E0.02777
G1 X203.001 Y198.213 E0.16582
G1 X191.908 Y204.618 E0.40163
G1 X191.049 Y204.885 E0.02822
G1 X100.347 Y204.895 E2.84388
G1 X99.819 Y204.829 E0.01669
G1 X99.323 Y204.637 E0.01669
G1 X88.231 Y198.233 E0.40157
G1 X87.848 Y197.942 E0.01510
G1 X87.536 Y197.571 E0.01521
G1 X42.184 Y119.026 E2.84375
G1 X41.995 Y118.544 E0.01623
G1 X41.925 Y118.035 E0.01612
G1 X41.925 Y105.227 E0.40158
G1 X42.559 Y100.022 E0.16439
G1 X42.774 Y99.368 E0.02161
G1 F8640
G1 X43.151 Y98.819 E-0.15372
G1 X43.630 Y98.446 E-0.14010
G1 X45.378 Y97.436 E-0.46618
G1 E-0.04000 F2100.00000
G1 Z0.800 F10800.000
G1 X45.526 Y100.556
G1 Z0.200
G1 E0.80000 F2100.00000
G1 F1200
G1 X73.430 Y84.445 E1.01027
G1 X75.709 Y88.391 E0.14287
G1 X75.167 Y90.092 E0.05597
G1 X75.301 Y92.255 E0.06796
G1 X76.206 Y94.224 E0.06795
G1 X77.763 Y95.733 E0.06796
G1 X79.758 Y96.578 E0.06793
G1 X81.924 Y96.644 E0.06796
G1 X83.968 Y95.924 E0.06795
G1 X85.614 Y94.514 E0.06795
G1 X86.640 Y92.605 E0.06796
G1 X86.906 Y90.454 E0.06795
G1 X86.377 Y88.352 E0.06795
G1 X85.126 Y86.583 E0.06795
G1 X83.319 Y85.386 E0.06796
G1 X81.183 Y84.925 E0.06850
G1 X79.037 Y81.208 E0.13458
G1 X160.033 Y34.445 E2.93244
G1 X162.311 Y38.391 E0.14287
G1 X161.770 Y40.092 E0.05596
G1 X161.903 Y42.255 E0.06795
G1 X162.809 Y44.224 E0.06795
G1 X164.365 Y45.733 E0.06795
G1 X166.361 Y46.578 E0.06795
G1 X168.527 Y46.644 E0.06795
G1 X170.571 Y45.924 E0.06795
G1 X172.217 Y44.514 E0.06796
G1 X173.242 Y42.605 E0.06795
G1 X173.509 Y40.454 E0.06795
G1 X172.980 Y38.352 E0.06795
G1 X171.728 Y36.583 E0.06795
G1 X169.921 Y35.386 E0.06795
G1 X167.786 Y34.925 E0.06850
G1 X165.640 Y31.208 E0.13458
G1 X205.300 Y8.310 E1.43590
G1 X205.300 Y54.070 E1.43476
G1 X200.944 Y54.070 E0.13657
G1 X199.478 Y52.451 E0.06850
G1 X197.538 Y51.485 E0.06795
G1 X195.380 Y51.285 E0.06795
G1 X193.295 Y51.878 E0.06795
G1 X191.566 Y53.184 E0.06795
G1 X190.425 Y55.026 E0.06795
G1 X190.027 Y57.157 E0.06795
G1 X190.425 Y59.287 E0.06795
G1 X191.566 Y61.130 E0.06795
G1 X193.295 Y62.436 E0.06795
G1 X195.380 Y63.029 E0.06795
G1 X197.538 Y62.829 E0.06795
G1 X199.478 Y61.863 E0.06795
G1 X200.680 Y60.544 E0.05596
G1 X205.300 Y60.544 E0.14486
G1 X205.300 Y154.070 E2.93244
G1 X200.944 Y154.070 E0.13657
G1 X199.478 Y152.451 E0.06848
G1 X197.538 Y151.484 E0.06797
G1 X195.380 Y151.285 E0.06795
G1 X193.295 Y151.878 E0.06795
G1 X191.566 Y153.183 E0.06794
G1 X190.425 Y155.026 E0.06796
G1 X190.027 Y157.157 E0.06796
G1 X190.425 Y159.287 E0.06796
G1 X191.566 Y161.130 E0.06796
G1 X193.295 Y162.435 E0.06794
G1 X195.380 Y163.028 E0.06795
G1 X197.538 Y162.829 E0.06795
G1 X199.478 Y161.862 E0.06797
G1 X200.680 Y160.544 E0.05595
G1 X205.300 Y160.544 E0.14486
G1 X205.300 Y192.765 E1.01026
G1 X201.254 Y192.765 E0.12686
M73 Q0 S276
G1 X201.254 Y196.018 E0.10200
G1 X190.843 Y202.029 E0.37694
M73 P0 R267
G1 X180.431 Y196.018 E0.37695
G1 X180.431 Y192.765 E0.10200
G1 X171.092 Y192.765 E0.29283
G1 X171.092 Y196.018 E0.10200
G1 X160.680 Y202.029 E0.37695
G1 X150.269 Y196.018 E0.37694
G1 X150.269 Y192.765 E0.10200
G1 X140.929 Y192.765 E0.29284
G1 X140.929 Y196.018 E0.10200
G1 X130.518 Y202.029 E0.37694
G1 X120.106 Y196.018 E0.37695
G1 X120.106 Y192.765 E0.10200
G1 X110.767 Y192.765 E0.29283
G1 X110.767 Y196.018 E0.10200
G1 X100.355 Y202.029 E0.37695
G1 X89.944 Y196.018 E0.37693
G1 X89.944 Y183.996 E0.37694
G1 X92.761 Y182.370 E0.10198
G1 X88.091 Y174.281 E0.29286
G1 X85.274 Y175.908 E0.10200
G1 X74.862 Y169.897 E0.37695
G1 X74.862 Y157.875 E0.37694
G1 X77.680 Y156.248 E0.10202
G1 X73.010 Y148.160 E0.29283
G1 X70.193 Y149.786 E0.10198
G1 X59.781 Y143.775 E0.37696
G1 X59.781 Y131.753 E0.37694
G1 X62.599 Y130.127 E0.10201
G1 X57.929 Y122.038 E0.29286
G1 X55.112 Y123.665 E0.10200
G1 X44.700 Y117.654 E0.37696
G1 X44.700 Y105.632 E0.37694
G1 X47.517 Y104.005 E0.10199
G1 X45.556 Y100.608 E0.12299
G1 F8640
G1 X48.403 Y98.957 E-0.76000
G1 E-0.04000 F2100.00000
G1 Z0.800 F10800.000
G1 X201.631 Y193.142
G1 Z0.200
G1 E0.80000 F2100.00000
G1 F1200
G1 X201.631 Y196.235 E0.09700
G1 X190.843 Y202.464 E0.39060
G1 X180.054 Y196.235 E0.39060
G1 X180.054 Y193.142 E0.09700
G1 X171.469 Y193.142 E0.26919
G1 X171.469 Y196.235 E0.09700
G1 X160.680 Y202.464 E0.39060
G1 X149.892 Y196.235 E0.39060
G1 X149.892 Y193.142 E0.09700
G1 X141.306 Y193.142 E0.26919
G1 X141.306 Y196.235 E0.09700
G1 X130.518 Y202.464 E0.39060
G1 X119.729 Y196.235 E0.39060
G1 X119.729 Y193.142 E0.09700
G1 X111.144 Y193.142 E0.26919
G1 X111.144 Y196.235 E0.09700
G1 X100.355 Y202.464 E0.39060
G1 X89.567 Y196.235 E0.39058
G1 X89.567 Y183.778 E0.39060
G1 X92.246 Y182.232 E0.09698
G1 X87.953 Y174.796 E0.26921
G1 X85.274 Y176.343 E0.09700
G1 X74.485 Y170.114 E0.39061
G1 X74.485 Y157.657 E0.39060
G1 X77.165 Y156.110 E0.09703
G1 X72.872 Y148.675 E0.26918
G1 X70.193 Y150.221 E0.09698
G1 X59.404 Y143.992 E0.39061
G1 X59.404 Y131.535 E0.39060
G1 X62.084 Y129.989 E0.09701
G1 X57.791 Y122.553 E0.26921
G1 X55.112 Y124.100 E0.09700
G1 X44.323 Y117.871 E0.39061
G1 X44.323 Y105.414 E0.39060
G1 X47.002 Y103.867 E0.09699
G1 X45.011 Y100.418 E0.12487
G1 X73.568 Y83.930 E1.03391
G1 X76.119 Y88.347 E0.15992
G1 X75.548 Y90.139 E0.05898
G1 X75.673 Y92.162 E0.06353
G1 X76.519 Y94.003 E0.06353
G1 X77.975 Y95.413 E0.06355
G1 X79.840 Y96.203 E0.06351
G1 X81.866 Y96.265 E0.06354
G1 X83.777 Y95.592 E0.06353
G1 X85.315 Y94.274 E0.06353
G1 X86.274 Y92.488 E0.06354
G1 X86.523 Y90.478 E0.06353
G1 X86.029 Y88.513 E0.06353
G1 X84.859 Y86.859 E0.06353
G1 X83.169 Y85.739 E0.06354
G1 X81.189 Y85.306 E0.06354
G1 X80.986 Y85.338 E0.00646
G1 X78.522 Y81.070 E0.15451
G1 X160.171 Y33.930 E2.95609
G1 X162.721 Y38.347 E0.15991
G1 X162.151 Y40.139 E0.05897
G1 X162.275 Y42.162 E0.06353
G1 X163.122 Y44.003 E0.06353
G1 X164.577 Y45.413 E0.06353
G1 X166.443 Y46.203 E0.06353
G1 X168.468 Y46.265 E0.06353
G1 X170.379 Y45.592 E0.06353
G1 X171.918 Y44.274 E0.06353
G1 X172.877 Y42.488 E0.06353
G1 X173.126 Y40.478 E0.06353
G1 X172.631 Y38.512 E0.06353
G1 X171.461 Y36.859 E0.06353
G1 X169.772 Y35.739 E0.06353
G1 X167.792 Y35.306 E0.06353
G1 X167.588 Y35.338 E0.00647
G1 X165.124 Y31.070 E0.15450
G1 X205.677 Y7.657 E1.46820
G1 X205.677 Y54.447 E1.46706
G1 X200.686 Y54.447 E0.15649
G1 X200.612 Y54.254 E0.00647
G1 X199.247 Y52.757 E0.06353
G1 X197.433 Y51.854 E0.06353
G1 X195.415 Y51.667 E0.06353
G1 X193.466 Y52.221 E0.06353
G1 X191.849 Y53.442 E0.06353
G1 X190.782 Y55.165 E0.06353
G1 X190.410 Y57.157 E0.06353
G1 X190.782 Y59.148 E0.06353
G1 X191.849 Y60.871 E0.06353
G1 X193.466 Y62.092 E0.06353
G1 X195.415 Y62.647 E0.06353
G1 X197.433 Y62.460 E0.06353
G1 X199.247 Y61.557 E0.06353
G1 X200.514 Y60.167 E0.05897
G1 X205.677 Y60.167 E0.16190
G1 X205.677 Y154.447 E2.95608
G1 X200.686 Y154.447 E0.15649
G1 X200.612 Y154.254 E0.00647
G1 X199.247 Y152.757 E0.06352
G1 X197.433 Y151.853 E0.06354
G1 X195.415 Y151.667 E0.06353
G1 X193.466 Y152.221 E0.06353
G1 X191.849 Y153.442 E0.06352
G1 X190.782 Y155.165 E0.06353
G1 X190.410 Y157.157 E0.06354
G1 X190.782 Y159.149 E0.06354
G1 X191.849 Y160.872 E0.06353
G1 X193.466 Y162.092 E0.06352
G1 X195.415 Y162.646 E0.06353
G1 X197.433 Y162.460 E0.06353
G1 X199.247 Y161.556 E0.06354
G1 X200.514 Y160.167 E0.05896
G1 X205.677 Y160.167 E0.16190
G1 X205.677 Y193.142 E1.03391
G1 X201.691 Y193.142 E0.12498
G1 X201.277 Y193.327 F10800.000
G1 F8640
G1 X201.631 Y196.235 E-0.71449
G1 X201.460 Y196.334 E-0.04551
G1 E-0.04000 F2100.00000
G1 Z0.800 F10800.000
G1 X196.857 Y198.426
G1 Z0.200
G1 E0.80000 F2100.00000
G1 F1200
G1 X86.581 Y88.150 E4.89455
M73 Q0 S274
M73 P0 R266
G1 X86.639 Y88.232 E0.00315
G1 X86.810 Y88.913 E0.02204
G1 X196.394 Y198.497 E4.86383
G1 X196.056 Y198.692 E0.01226
G1 X86.989 Y89.626 E4.84086
G1 X87.169 Y90.339 E0.02308
G1 X195.717 Y198.888 E4.81788
G1 X195.379 Y199.083 E0.01226
G1 X87.142 Y90.847 E4.80403
G1 X87.084 Y91.322 E0.01502
G1 X195.040 Y199.279 E4.79162
G1 X194.702 Y199.474 E0.01226
G1 X87.025 Y91.797 E4.77920
G1 X86.966 Y92.272 E0.01502
G1 X194.364 Y199.669 E4.76679
G1 X194.025 Y199.865 E0.01226
G1 X86.893 Y92.732 E4.75503
M73 Q1 S273
M73 P1 R265
G1 X86.706 Y93.079 E0.01237
G1 X193.687 Y200.060 E4.74829
G1 X193.348 Y200.256 E0.01226
G1 X86.519 Y93.427 E4.74155
G1 X86.333 Y93.774 E0.01237
G1 X193.010 Y200.451 E4.73481
G1 X192.672 Y200.646 E0.01226
G1 X86.146 Y94.121 E4.72807
G1 X85.960 Y94.468 E0.01237
G1 X192.333 Y200.842 E4.72134
G1 X191.995 Y201.037 E0.01226
G1 X85.738 Y94.780 E4.71616
G1 X85.451 Y95.027 E0.01188
G1 X191.656 Y201.232 E4.71390
G1 X191.318 Y201.428 E0.01226
G1 X85.163 Y95.273 E4.71163
M73 Q1 S272
M73 P1 R264
G1 X84.876 Y95.519 E0.01188
G1 X190.980 Y201.623 E4.70937
G1 X190.843 Y201.702 E0.00496
G1 X190.091 Y201.268 E0.02725
G1 X84.588 Y95.766 E4.68269
G1 X84.301 Y96.012 E0.01188
G1 X189.291 Y201.003 E4.65997
G1 F8640
G1 X186.964 Y198.675 E-0.76000
G1 E-0.04000 F2100.00000
G1 Z0.800 F10800.000
G1 X188.028 Y200.273
G1 Z0.200
G1 E0.80000 F2100.00000
G1 F1200
G1 X180.714 Y192.959 E0.32466
G1 X180.714 Y193.493 E0.01675
G1 X186.766 Y199.544 E0.26860
G1 F8640
G1 X184.438 Y197.217 E-0.76000
G1 E-0.04000 F2100.00000
G1 Z0.800 F10800.000
G1 X185.503 Y198.815
G1 Z0.200
G1 E0.80000 F2100.00000
G1 F1200
G1 X180.714 Y194.026 E0.21255
G1 X180.714 Y194.560 E0.01675
G1 X184.240 Y198.086 E0.15649
G1 F8640
G1 X181.912 Y195.759 E-0.76000
G1 E-0.04000 F2100.00000
G1 Z0.800 F10800.000
G1 X182.977 Y197.357
G1 Z0.200
G1 E0.80000 F2100.00000
G1 F1200
G1 X180.714 Y195.094 E0.10044
G1 X180.714 Y195.628 E0.01675
G1 X181.714 Y196.628 E0.04438
G1 F8640
G1 X180.714 Y195.628 E-0.32652
G1 X180.714 Y195.094 E-0.12325
G1 X181.664 Y196.044 E-0.31022
G1 E-0.04000 F2100.00000
G1 Z0.800 F10800.000
G1 X180.407 Y192.652
G1 Z0.200
G1 E0.80000 F2100.00000
G1 F1200
G1 X83.976 Y96.221 E4.28001
G1 X83.582 Y96.360 E0.01313
G1 X179.703 Y192.482 E4.26631
G1 X179.169 Y192.482 E0.01675
G1 X83.187 Y96.499 E4.26014
G1 X82.792 Y96.638 E0.01313
G1 X178.635 Y192.482 E4.25396
G1 X178.102 Y192.482 E0.01675
G1 X82.397 Y96.778 E4.24779
M73 Q1 S271
M73 P1 R263
G1 X82.003 Y96.917 E0.01313
G1 X177.568 Y192.482 E4.24162
G1 X177.034 Y192.482 E0.01675
G1 X81.465 Y96.913 E4.24177
G1 X80.915 Y96.896 E0.01729
G1 X176.500 Y192.482 E4.24252
G1 X175.967 Y192.482 E0.01675
G1 X80.364 Y96.879 E4.24328
G1 X79.813 Y96.862 E0.01729
G1 X175.433 Y192.482 E4.24403
G1 X174.899 Y192.482 E0.01675
G1 X78.967 Y96.550 E4.25790
G1 X78.041 Y96.158 E0.03155
G1 X174.365 Y192.482 E4.27530
G1 X173.831 Y192.482 E0.01675
G1 X68.796 Y87.447 E4.66192
G1 X69.135 Y87.252 E0.01226
G1 X75.714 Y93.831 E0.29201
G1 X75.259 Y92.842 E0.03415
G1 X69.473 Y87.056 E0.25680
G1 X69.812 Y86.861 E0.01226
G1 X75.005 Y92.054 E0.23049
G1 X74.970 Y91.485 E0.01789
G1 X70.150 Y86.665 E0.21392
G1 X70.489 Y86.470 E0.01226
G1 X74.935 Y90.916 E0.19734
G1 X74.899 Y90.347 E0.01789
G1 X70.827 Y86.275 E0.18076
G1 X71.165 Y86.079 E0.01226
G1 X74.945 Y89.859 E0.16774
G1 X75.074 Y89.454 E0.01334
G1 X71.504 Y85.884 E0.15845
G1 X71.842 Y85.689 E0.01226
G1 X75.203 Y89.049 E0.14915
G1 X75.331 Y88.644 E0.01334
G1 X72.181 Y85.493 E0.13985
G1 X72.519 Y85.298 E0.01226
G1 X75.531 Y88.310 E0.13369
G1 F8640
G1 X73.204 Y85.982 E-0.76000
G1 E-0.04000 F2100.00000
G1 Z0.800 F10800.000
G1 X74.802 Y87.047
G1 Z0.200
G1 E0.80000 F2100.00000
G1 F1200
G1 X72.857 Y85.102 E0.08629
G1 X73.196 Y84.907 E0.01226
G1 X74.072 Y85.783 E0.03889
G1 F8640
G1 X73.196 Y84.907 E-0.28613
G1 X72.857 Y85.102 E-0.09023
G1 X74.032 Y86.277 E-0.38364
G1 E-0.04000 F2100.00000
G1 Z0.800 F10800.000
G1 X79.982 Y82.619
G1 Z0.200
G1 E0.80000 F2100.00000
G1 F1200
G1 X82.445 Y85.082 E0.10933
M73 Q2 S270
M73 P2 R262
G1 X81.764 Y84.935 F10800.000
G1 F1200
G1 X80.711 Y83.882 E0.04675
G1 F8640
G1 X81.764 Y84.935 E-0.34396
G1 E-0.45604 F2100.00000
G1 Z0.800 F10800.000
G1 X79.252 Y81.356
G1 Z0.200
G1 E0.80000 F2100.00000
G1 F1200
G1 X82.904 Y85.008 E0.16209
G1 X83.430 Y85.121 E0.01688
G1 X83.790 Y85.359 E0.01354
G1 X79.626 Y81.195 E0.18484
G1 X79.964 Y80.999 E0.01226
G1 X197.071 Y198.106 E5.19774
G1 X197.409 Y197.911 E0.01226
G1 X80.302 Y80.804 E5.19774
G1 X80.641 Y80.609 E0.01226
G1 X197.748 Y197.716 E5.19774
G1 X198.086 Y197.520 E0.01226
G1 X80.979 Y80.413 E5.19774
G1 X81.318 Y80.218 E0.01226
G1 X198.424 Y197.325 E5.19774
G1 X198.763 Y197.129 E0.01226
G1 X81.656 Y80.023 E5.19773
G1 X81.994 Y79.827 E0.01226
G1 X199.101 Y196.934 E5.19773
G1 X199.440 Y196.739 E0.01226
G1 X82.333 Y79.632 E5.19773
M73 Q2 S269
M73 P2 R261
G1 X82.671 Y79.436 E0.01226
G1 X199.778 Y196.543 E5.19773
G1 X200.117 Y196.348 E0.01226
G1 X83.010 Y79.241 E5.19773
G1 X83.348 Y79.046 E0.01226
G1 X200.455 Y196.153 E5.19773
G1 X200.793 Y195.957 E0.01226
G1 X83.686 Y78.850 E5.19773
G1 X84.025 Y78.655 E0.01226
G1 X200.971 Y195.601 E5.19061
G1 X200.971 Y195.067 E0.01675
G1 X84.363 Y78.459 E5.17559
G1 X84.702 Y78.264 E0.01226
G1 X200.971 Y194.534 E5.16057
G1 X200.971 Y194.000 E0.01675
G1 X85.040 Y78.069 E5.14555
M73 Q3 S268
M73 P3 R260
G1 X85.378 Y77.873 E0.01226
G1 X200.971 Y193.466 E5.13053
G1 X200.971 Y192.932 E0.01675
G1 X85.717 Y77.678 E5.11551
G1 X86.055 Y77.483 E0.01226
G1 X201.055 Y192.482 E5.10419
G1 X201.588 Y192.482 E0.01675
G1 X86.394 Y77.287 E5.11286
G1 X86.732 Y77.092 E0.01226
G1 X202.122 Y192.482 E5.12153
G1 X202.656 Y192.482 E0.01675
G1 X87.070 Y76.896 E5.13020
G1 X87.409 Y76.701 E0.01226
G1 X203.190 Y192.482 E5.13887
G1 X203.723 Y192.482 E0.01675
G1 X87.747 Y76.506 E5.14755
M73 Q3 S267
M73 P3 R259
G1 X88.086 Y76.310 E0.01226
G1 X204.257 Y192.482 E5.15622
G1 X204.791 Y192.482 E0.01675
G1 X88.424 Y76.115 E5.16489
G1 X88.763 Y75.920 E0.01226
G1 X205.017 Y192.174 E5.15991
G1 X205.017 Y191.641 E0.01675
G1 X89.101 Y75.724 E5.14489
G1 X89.439 Y75.529 E0.01226
G1 X205.017 Y191.107 E5.12987
G1 X205.017 Y190.573 E0.01675
G1 X89.778 Y75.333 E5.11485
G1 X90.116 Y75.138 E0.01226
G1 X205.017 Y190.039 E5.09983
G1 X205.017 Y189.505 E0.01675
G1 X90.455 Y74.943 E5.08481
M73 Q3 S266
M73 P3 R258
G1 X90.793 Y74.747 E0.01226
G1 X205.017 Y188.972 E5.06979
G1 X205.017 Y188.438 E0.01675
G1 X91.131 Y74.552 E5.05477
G1 X91.470 Y74.357 E0.01226
G1 X205.017 Y187.904 E5.03975
G1 X205.017 Y187.370 E0.01675
G1 X91.808 Y74.161 E5.02473
G1 X92.147 Y73.966 E0.01226
G1 X205.017 Y186.836 E5.00971
G1 X205.017 Y186.303 E0.01675
G1 X92.485 Y73.770 E4.99469
G1 X92.823 Y73.575 E0.01226
G1 X205.017 Y185.769 E4.97967
G1 X205.017 Y185.235 E0.01675
G1 X93.162 Y73.380 E4.96465
M73 Q4 S265
M73 P4 R257
