; generated by Slic3r Prusa Edition 1.42.0-alpha5+ on 2019-04-03 at 19:24:54

; 

; external perimeters extrusion width = 0.45mm
; perimeters extrusion width = 0.45mm
; infill extrusion width = 0.45mm
; solid infill extrusion width = 0.45mm
; top infill extrusion width = 0.40mm
; first layer extrusion width = 0.42mm

M73 P0 R273
M73 Q0 S281
M201 X1000 Y1000 Z1000 E5000 ; sets maximum accelerations, mm/sec^2
M203 X200 Y200 Z12 E120 ; sets maximum feedrates, mm/sec
M204 P1250 R1250 T1250 ; sets acceleration (P, T) and retract acceleration (R), mm/sec^2
M205 X8.00 Y8.00 Z0.40 E1.50 ; sets the jerk limits, mm/sec
M205 S0 T0 ; sets the minimum extruding and travel feed rate, mm/sec
M107
M115 U3.5.1 ; tell printer latest fw version
M83  ; extruder relative mode
M104 S215 ; set extruder temp
M140 S60 ; set bed temp
M190 S60 ; wait for bed temp
M109 S215 ; wait for extruder temp
G28 W ; home all without mesh bed level
G80 ; mesh bed leveling
G1 Y-3.0 F1000.0 ; go outside print area
G92 E0.0
G1 X60.0 E9.0  F1000.0 ; intro line
M73 Q0 S281
M73 P0 R272
G1 X100.0 E12.5  F1000.0 ; intro line
G92 E0.0
M221 S95
M900 K30; Filament gcode
G21 ; set units to millimeters
G90 ; use absolute coordinates
M83 ; use relative distances for extrusion
;BEFORE_LAYER_CHANGE
G92 E0.0
;0.2


G1 E-0.80000 F2100.00000
G1 Z0.600 F10800.000
;AFTER_LAYER_CHANGE
;0.2
G1 X49.930 Y5.980
G1 Z0.200
G1 E0.80000 F2100.00000
M204 S1000
G1 F1200
G1 X50.414 Y5.500 E0.02134
G1 X51.021 Y5.193 E0.02134
G1 X51.697 Y5.086 E0.02146
G1 X52.362 Y5.191 E0.02112
G1 X120.614 Y27.188 E2.24838
G1 X190.093 Y67.289 E2.51528
G1 X192.198 Y69.134 E0.08777
G1 X214.758 Y99.275 E1.18046
G1 X214.994 Y100.001 E0.02394
G1 X215.593 Y105.249 E0.16560
G1 X215.594 Y118.051 E0.40140
G1 X215.523 Y118.564 E0.01623
G1 X215.334 Y119.046 E0.01623
G1 X169.982 Y197.590 E2.84375
G1 X169.669 Y197.961 E0.01521
G1 X169.286 Y198.253 E0.01510
G1 X158.194 Y204.656 E0.40157
G1 X157.697 Y204.847 E0.01669
G1 X157.169 Y204.914 E0.01669
G1 X66.471 Y204.904 E2.84377
G1 X65.609 Y204.636 E0.02833
G1 X54.511 Y198.227 E0.40181
G1 X50.322 Y195.074 E0.16439
G1 X49.764 Y194.400 E0.02743
G1 X34.954 Y159.928 E1.17638
G1 X34.419 Y157.418 E0.08046
G1 X34.406 Y57.153 E3.14373
G1 X34.879 Y54.633 E0.08041
G1 X49.618 Y6.584 E1.57580
G1 X49.903 Y6.033 E0.01946
G1 F8640
G1 X50.414 Y5.500 E-0.17041
G1 X51.021 Y5.193 E-0.15717
G1 X51.697 Y5.086 E-0.15800
G1 X52.362 Y5.191 E-0.15550
G1 X52.852 Y5.349 E-0.11891
G1 E-0.04000 F2100.00000
G1 Z0.800 F10800.000
G1 X52.282 Y8.292
G1 Z0.200
G1 E0.80000 F2100.00000
G1 F1200
G1 X110.248 Y41.759 E2.09866
G1 X113.603 Y35.948 E0.21039
G1 X112.965 Y34.654 E0.04523
G1 X112.853 Y32.940 E0.05385
G1 X113.404 Y31.314 E0.05385
G1 X114.537 Y30.023 E0.05385
G1 X116.077 Y29.263 E0.05385
G1 X117.791 Y29.151 E0.05385
G1 X119.417 Y29.703 E0.05385
G1 X120.708 Y30.835 E0.05384
G1 X121.468 Y32.376 E0.05385
G1 X121.580 Y34.089 E0.05385
G1 X121.028 Y35.715 E0.05384
G1 X119.896 Y37.007 E0.05385
G1 X118.355 Y37.766 E0.05385
G1 X116.916 Y37.860 E0.04523
G1 X113.561 Y43.672 E0.21039
G1 X179.529 Y81.759 E2.38838
G1 X182.885 Y75.948 E0.21040
G1 X182.247 Y74.654 E0.04523
G1 X182.135 Y72.940 E0.05384
G1 X182.687 Y71.314 E0.05385
G1 X183.819 Y70.023 E0.05384
G1 X185.359 Y69.263 E0.05385
G1 X187.072 Y69.151 E0.05383
G1 X188.699 Y69.703 E0.05387
G1 X189.991 Y70.835 E0.05385
G1 X190.749 Y72.376 E0.05384
G1 X190.862 Y74.089 E0.05385
G1 X190.310 Y75.715 E0.05384
G1 X189.178 Y77.007 E0.05384
G1 X187.638 Y77.766 E0.05385
G1 X186.198 Y77.860 E0.04524
G1 X182.844 Y83.672 E0.21038
G1 X212.025 Y100.519 E1.05649
G1 X210.002 Y104.023 E0.12686
G1 X212.818 Y105.650 E0.10199
G1 X212.818 Y117.672 E0.37695
G1 X202.407 Y123.683 E0.37696
G1 X199.590 Y122.056 E0.10200
G1 X194.919 Y130.145 E0.29286
G1 X197.737 Y131.771 E0.10201
G1 X197.737 Y143.793 E0.37694
G1 X187.325 Y149.804 E0.37696
G1 X184.509 Y148.178 E0.10198
G1 X179.839 Y156.266 E0.29283
G1 X182.656 Y157.893 E0.10202
G1 X182.656 Y169.915 E0.37694
G1 X172.245 Y175.926 E0.37696
G1 X169.428 Y174.299 E0.10200
G1 X164.758 Y182.388 E0.29286
G1 X167.574 Y184.014 E0.10198
G1 X167.574 Y196.036 E0.37694
G1 X157.163 Y202.047 E0.37693
G1 X146.752 Y196.036 E0.37695
G1 X146.752 Y192.783 E0.10200
G1 X137.412 Y192.783 E0.29284
G1 X137.412 Y196.036 E0.10200
G1 X127.001 Y202.047 E0.37695
G1 X116.589 Y196.036 E0.37694
G1 X116.589 Y192.783 E0.10200
G1 X107.250 Y192.783 E0.29284
G1 X107.250 Y196.036 E0.10200
G1 X96.838 Y202.047 E0.37694
G1 X86.427 Y196.036 E0.37695
G1 X86.427 Y192.783 E0.10200
G1 X77.087 Y192.783 E0.29284
M73 Q0 S280
M73 P0 R271
G1 X77.087 Y196.036 E0.10200
G1 X66.676 Y202.047 E0.37695
G1 X56.264 Y196.036 E0.37694
G1 X56.264 Y192.783 E0.10200
G1 X52.282 Y192.783 E0.12488
G1 X52.282 Y159.088 E1.05648
G1 X45.508 Y159.088 E0.21238
G1 X44.707 Y160.288 E0.04524
G1 X43.279 Y161.241 E0.05383
G1 X41.594 Y161.576 E0.05385
G1 X39.910 Y161.241 E0.05385
G1 X38.482 Y160.288 E0.05383
G1 X37.528 Y158.859 E0.05387
G1 X37.193 Y157.175 E0.05384
G1 X37.528 Y155.491 E0.05384
G1 X38.482 Y154.062 E0.05387
G1 X39.910 Y153.109 E0.05383
G1 X41.594 Y152.774 E0.05385
G1 X43.279 Y153.109 E0.05385
G1 X44.707 Y154.062 E0.05383
G1 X45.508 Y155.262 E0.04524
G1 X52.282 Y155.262 E0.21238
G1 X52.282 Y59.088 E3.01547
G1 X45.508 Y59.088 E0.21238
G1 X44.707 Y60.287 E0.04523
G1 X43.279 Y61.241 E0.05385
G1 X41.594 Y61.576 E0.05385
G1 X39.910 Y61.241 E0.05385
G1 X38.482 Y60.287 E0.05385
G1 X37.528 Y58.859 E0.05385
G1 X37.193 Y57.175 E0.05385
G1 X37.528 Y55.491 E0.05385
G1 X38.482 Y54.063 E0.05385
G1 X39.910 Y53.109 E0.05385
G1 X41.594 Y52.774 E0.05385
G1 X43.279 Y53.109 E0.05385
G1 X44.707 Y54.063 E0.05385
G1 X45.508 Y55.262 E0.04523
G1 X52.282 Y55.262 E0.21238
G1 X52.282 Y8.352 E1.47084
G1 F8640
G1 X55.133 Y9.995 E-0.76000
G1 E-0.04000 F2100.00000
G1 Z0.800 F10800.000
G1 X110.110 Y41.244
G1 Z0.200
G1 E0.80000 F2100.00000
G1 F1200
G1 X113.175 Y35.934 E0.19225
G1 X112.593 Y34.753 E0.04126
G1 X112.471 Y32.890 E0.05855
G1 X113.072 Y31.122 E0.05855
G1 X114.303 Y29.718 E0.05855
G1 X115.978 Y28.892 E0.05855
G1 X117.841 Y28.770 E0.05855
G1 X119.609 Y29.370 E0.05855
G1 X121.013 Y30.601 E0.05855
G1 X121.839 Y32.276 E0.05855
G1 X121.961 Y34.139 E0.05855
G1 X121.361 Y35.908 E0.05855
G1 X120.130 Y37.312 E0.05855
G1 X118.455 Y38.138 E0.05855
G1 X117.142 Y38.224 E0.04126
G1 X114.076 Y43.534 E0.19225
G1 X179.391 Y81.244 E2.36473
G1 X182.457 Y75.934 E0.19225
G1 X181.875 Y74.753 E0.04126
G1 X181.754 Y72.890 E0.05855
G1 X182.354 Y71.122 E0.05855
G1 X183.585 Y69.718 E0.05854
G1 X185.260 Y68.892 E0.05856
G1 X187.123 Y68.770 E0.05853
G1 X188.891 Y69.370 E0.05857
G1 X190.296 Y70.601 E0.05855
G1 X191.121 Y72.276 E0.05854
G1 X191.243 Y74.139 E0.05855
G1 X190.643 Y75.908 E0.05855
G1 X189.412 Y77.312 E0.05854
G1 X187.737 Y78.138 E0.05856
G1 X186.424 Y78.224 E0.04127
G1 X183.359 Y83.534 E0.19224
G1 X212.540 Y100.381 E1.05649
G1 X210.517 Y103.885 E0.12686
G1 X213.196 Y105.432 E0.09699
G1 X213.196 Y117.890 E0.39060
G1 X202.407 Y124.118 E0.39061
G1 X199.728 Y122.571 E0.09700
G1 X195.435 Y130.007 E0.26921
G1 X198.114 Y131.553 E0.09701
G1 X198.114 Y144.011 E0.39060
G1 X187.325 Y150.240 E0.39061
G1 X184.647 Y148.693 E0.09698
G1 X180.354 Y156.128 E0.26918
G1 X183.034 Y157.675 E0.09703
G1 X183.034 Y170.133 E0.39060
G1 X172.245 Y176.362 E0.39061
G1 X169.566 Y174.814 E0.09700
G1 X165.273 Y182.250 E0.26921
G1 X167.951 Y183.796 E0.09698
G1 X167.951 Y196.254 E0.39060
G1 X157.163 Y202.483 E0.39058
G1 X146.375 Y196.254 E0.39060
G1 X146.375 Y193.160 E0.09700
G1 X137.789 Y193.160 E0.26919
G1 X137.789 Y196.254 E0.09700
G1 X127.001 Y202.483 E0.39060
G1 X116.212 Y196.254 E0.39060
G1 X116.212 Y193.160 E0.09700
G1 X107.627 Y193.160 E0.26919
G1 X107.627 Y196.254 E0.09700
G1 X96.838 Y202.483 E0.39060
G1 X86.050 Y196.254 E0.39060
G1 X86.050 Y193.160 E0.09700
G1 X77.464 Y193.160 E0.26919
G1 X77.464 Y196.254 E0.09700
G1 X66.676 Y202.483 E0.39060
G1 X55.887 Y196.254 E0.39060
G1 X55.887 Y193.160 E0.09700
G1 X51.904 Y193.160 E0.12488
G1 X51.904 Y159.465 E1.05648
G1 X45.710 Y159.465 E0.19423
G1 X44.979 Y160.560 E0.04127
G1 X43.426 Y161.596 E0.05853
G1 X41.594 Y161.961 E0.05855
G1 X39.763 Y161.596 E0.05855
G1 X38.210 Y160.560 E0.05853
G1 X37.173 Y159.006 E0.05857
G1 X36.809 Y157.175 E0.05854
G1 X37.173 Y155.344 E0.05854
G1 X38.210 Y153.790 E0.05857
G1 X39.763 Y152.754 E0.05853
G1 X41.594 Y152.389 E0.05855
G1 X43.426 Y152.754 E0.05855
G1 X44.979 Y153.790 E0.05853
G1 X45.710 Y154.885 E0.04127
G1 X51.904 Y154.885 E0.19423
G1 X51.904 Y59.465 E2.99183
G1 X45.710 Y59.465 E0.19423
G1 X44.979 Y60.559 E0.04126
G1 X43.426 Y61.597 E0.05855
G1 X41.594 Y61.961 E0.05855
G1 X39.763 Y61.597 E0.05855
G1 X38.210 Y60.559 E0.05855
G1 X37.173 Y59.006 E0.05855
G1 X36.809 Y57.175 E0.05855
G1 X37.173 Y55.344 E0.05855
G1 X38.210 Y53.791 E0.05855
G1 X39.763 Y52.753 E0.05855
G1 X41.594 Y52.389 E0.05855
G1 X43.426 Y52.753 E0.05855
G1 X44.979 Y53.791 E0.05855
G1 X45.710 Y54.885 E0.04126
G1 X51.904 Y54.885 E0.19423
G1 X51.904 Y7.639 E1.48137
G1 X110.058 Y41.214 E2.10543
G1 X110.495 Y41.351 F10800.000
G1 F8640
G1 X111.731 Y38.379 E-0.76000
G1 E-0.04000 F2100.00000
G1 Z0.800 F10800.000
G1 X108.281 Y40.754
G1 Z0.200
G1 E0.80000 F2100.00000
G1 F1200
G1 X195.720 Y128.193 E3.87962
M73 Q0 S279
M73 P0 R270
G1 X195.915 Y127.854 E0.01226
G1 X110.008 Y41.946 E3.81170
G1 X110.351 Y42.145 E0.01245
G1 X110.493 Y41.899 E0.00892
G1 X196.111 Y127.516 E3.79880
G1 X196.306 Y127.178 E0.01226
G1 X110.689 Y41.560 E3.79880
G1 X110.884 Y41.222 E0.01226
G1 X196.626 Y126.964 E3.80432
G1 X196.821 Y126.625 F10800.000
G1 F1200
G1 X114.594 Y44.399 E3.64837
G1 F8640
G1 X116.921 Y46.726 E-0.76000
G1 E-0.04000 F2100.00000
G1 Z0.800 F10800.000
G1 X113.590 Y43.395
G1 Z0.200
G1 E0.80000 F2100.00000
G1 F1200
G1 X111.079 Y40.884 E0.11141
G1 X111.275 Y40.546 E0.01226
G1 X113.661 Y42.932 E0.10590
G1 X113.857 Y42.594 E0.01226
G1 X111.470 Y40.207 E0.10590
G1 X111.665 Y39.869 E0.01226
G1 X114.052 Y42.256 E0.10590
G1 X114.247 Y41.917 E0.01226
G1 X111.861 Y39.531 E0.10590
G1 X112.056 Y39.192 E0.01226
G1 X114.443 Y41.579 E0.10590
G1 X114.638 Y41.241 E0.01226
G1 X112.251 Y38.854 E0.10590
G1 X112.447 Y38.516 E0.01226
G1 X114.833 Y40.903 E0.10590
G1 X115.029 Y40.564 E0.01226
G1 X112.642 Y38.178 E0.10590
G1 X112.837 Y37.839 E0.01226
G1 X115.224 Y40.226 E0.10590
G1 X115.419 Y39.888 E0.01226
G1 X113.033 Y37.501 E0.10590
G1 X113.228 Y37.163 E0.01226
G1 X115.614 Y39.549 E0.10590
G1 X115.810 Y39.211 E0.01226
G1 X113.423 Y36.824 E0.10590
G1 X113.618 Y36.486 E0.01226
G1 X116.005 Y38.873 E0.10590
G1 X116.200 Y38.534 E0.01226
G1 X113.814 Y36.148 E0.10590
G1 X113.923 Y35.958 E0.00687
G1 X113.695 Y35.496 E0.01617
G1 X116.396 Y38.196 E0.11982
G1 X116.591 Y37.858 E0.01226
G1 X113.238 Y34.505 E0.14875
G1 X113.201 Y33.934 E0.01795
G1 X116.848 Y37.582 E0.16183
G1 X117.349 Y37.549 E0.01575
G1 X113.164 Y33.363 E0.18571
G1 X113.138 Y32.978 E0.01212
G1 X113.182 Y32.848 E0.00429
G1 X117.850 Y37.516 E0.20710
G1 X118.281 Y37.488 E0.01355
G1 X118.331 Y37.463 E0.00174
G1 X113.318 Y32.450 E0.22243
G1 X113.453 Y32.052 E0.01320
G1 X118.688 Y37.287 E0.23229
G1 X119.045 Y37.111 E0.01250
G1 X113.588 Y31.653 E0.24214
G1 X113.654 Y31.458 E0.00646
G1 X113.781 Y31.313 E0.00606
G1 X119.403 Y36.934 E0.24942
G1 X119.720 Y36.778 E0.01110
G1 X119.748 Y36.746 E0.00133
G1 X114.031 Y31.029 E0.25367
G1 X114.280 Y30.744 E0.01186
G1 X119.997 Y36.462 E0.25367
G1 X120.247 Y36.177 E0.01186
G1 X114.529 Y30.460 E0.25367
G1 X114.712 Y30.252 E0.00870
G1 X114.808 Y30.205 E0.00333
G1 X120.496 Y35.893 E0.25239
G1 X120.745 Y35.609 E0.01186
G1 X115.165 Y30.028 E0.24760
G1 X115.522 Y29.852 E0.01250
G1 X120.896 Y35.226 E0.23841
G1 X121.031 Y34.827 E0.01320
G1 X115.880 Y29.676 E0.22856
G1 X116.152 Y29.542 E0.00952
G1 X116.271 Y29.534 E0.00376
G1 X121.166 Y34.429 E0.21718
G1 X121.292 Y34.021 E0.01338
G1 X116.772 Y29.501 E0.20056
G1 X117.273 Y29.468 E0.01575
G1 X121.255 Y33.450 E0.17668
G1 X121.217 Y32.879 E0.01795
G1 X117.786 Y29.448 E0.15224
G1 X118.594 Y29.722 E0.02677
G1 X121.362 Y32.490 E0.12281
G1 F8640
G1 X119.034 Y30.163 E-0.76000
G1 E-0.04000 F2100.00000
G1 Z0.800 F10800.000
G1 X120.914 Y31.509
G1 Z0.200
G1 E0.80000 F2100.00000
G1 F1200
G1 X119.130 Y29.725 E0.07914
G1 F8640
G1 X120.914 Y31.509 E-0.58245
G1 E-0.21755 F2100.00000
G1 Z0.800 F10800.000
G1 X115.857 Y45.128
G1 Z0.200
G1 E0.80000 F2100.00000
G1 F1200
G1 X197.016 Y126.287 E3.60102
G1 X197.212 Y125.949 F10800.000
G1 F1200
G1 X117.119 Y45.856 E3.55367
G1 F8640
G1 X119.447 Y48.184 E-0.76000
G1 E-0.04000 F2100.00000
G1 Z0.800 F10800.000
G1 X118.382 Y46.585
G1 Z0.200
G1 E0.80000 F2100.00000
G1 F1200
G1 X197.407 Y125.611 E3.50631
G1 X197.602 Y125.272 F10800.000
G1 F1200
G1 X119.644 Y47.314 E3.45896
M73 Q1 S278
M73 P1 R269
G1 F8640
G1 X121.972 Y49.642 E-0.76000
G1 E-0.04000 F2100.00000
G1 Z0.800 F10800.000
G1 X120.907 Y48.043
G1 Z0.200
G1 E0.80000 F2100.00000
G1 F1200
G1 X197.797 Y124.934 E3.41161
G1 X197.993 Y124.596 F10800.000
G1 F1200
G1 X122.169 Y48.772 E3.36426
G1 F8640
G1 X124.497 Y51.100 E-0.76000
G1 E-0.04000 F2100.00000
G1 Z0.800 F10800.000
G1 X123.432 Y49.501
G1 Z0.200
G1 E0.80000 F2100.00000
G1 F1200
G1 X198.188 Y124.257 E3.31690
G1 X198.383 Y123.919 F10800.000
G1 F1200
G1 X124.694 Y50.230 E3.26955
G1 F8640
G1 X127.022 Y52.557 E-0.76000
G1 E-0.04000 F2100.00000
G1 Z0.800 F10800.000
G1 X125.957 Y50.959
G1 Z0.200
G1 E0.80000 F2100.00000
G1 F1200
G1 X198.579 Y123.581 E3.22220
G1 X198.774 Y123.242 F10800.000
G1 F1200
G1 X127.219 Y51.688 E3.17485
G1 F8640
G1 X129.547 Y54.015 E-0.76000
G1 E-0.04000 F2100.00000
G1 Z0.800 F10800.000
G1 X128.482 Y52.417
G1 Z0.200
G1 E0.80000 F2100.00000
G1 F1200
G1 X198.969 Y122.904 E3.12749
G1 X199.165 Y122.566 F10800.000
G1 F1200
G1 X129.745 Y53.146 E3.08014
G1 F8640
G1 X132.072 Y55.473 E-0.76000
G1 E-0.04000 F2100.00000
G1 Z0.800 F10800.000
G1 X131.007 Y53.875
G1 Z0.200
G1 E0.80000 F2100.00000
G1 F1200
G1 X199.360 Y122.228 E3.03279
G1 X199.593 Y121.928 F10800.000
G1 F1200
G1 X132.270 Y54.604 E2.98713
G1 F8640
G1 X134.597 Y56.931 E-0.76000
G1 E-0.04000 F2100.00000
G1 Z0.800 F10800.000
G1 X133.532 Y55.333
G1 Z0.200
G1 E0.80000 F2100.00000
G1 F1200
G1 X200.857 Y122.657 E2.98717
G1 F8640
G1 X198.529 Y120.330 E-0.76000
G1 E-0.04000 F2100.00000
G1 Z0.800 F10800.000
G1 X202.120 Y123.387
G1 Z0.200
G1 E0.80000 F2100.00000
G1 F1200
G1 X134.795 Y56.062 E2.98721
M73 Q1 S277
M73 P1 R268
G1 F8640
G1 X137.122 Y58.389 E-0.76000
G1 E-0.04000 F2100.00000
G1 Z0.800 F10800.000
G1 X136.057 Y56.790
G1 Z0.200
G1 E0.80000 F2100.00000
G1 F1200
G1 X202.668 Y123.401 E2.95550
G1 X203.007 Y123.206 F10800.000
G1 F1200
G1 X137.320 Y57.519 E2.91449
G1 F8640
G1 X139.647 Y59.847 E-0.76000
G1 E-0.04000 F2100.00000
G1 Z0.800 F10800.000
G1 X138.582 Y58.248
G1 Z0.200
G1 E0.80000 F2100.00000
G1 F1200
G1 X203.345 Y123.011 E2.87349
G1 X203.683 Y122.815 F10800.000
G1 F1200
G1 X139.845 Y58.977 E2.83248
G1 F8640
G1 X142.172 Y61.305 E-0.76000
G1 E-0.04000 F2100.00000
G1 Z0.800 F10800.000
G1 X141.107 Y59.706
G1 Z0.200
G1 E0.80000 F2100.00000
G1 F1200
G1 X204.021 Y122.620 E2.79147
G1 X204.360 Y122.425 F10800.000
G1 F1200
G1 X142.370 Y60.435 E2.75046
G1 F8640
G1 X144.697 Y62.762 E-0.76000
G1 E-0.04000 F2100.00000
G1 Z0.800 F10800.000
G1 X143.632 Y61.164
G1 Z0.200
G1 E0.80000 F2100.00000
G1 F1200
G1 X204.698 Y122.230 E2.70945
G1 X205.036 Y122.034 F10800.000
G1 F1200
G1 X144.895 Y61.893 E2.66844
G1 F8640
G1 X147.222 Y64.220 E-0.76000
G1 E-0.04000 F2100.00000
G1 Z0.800 F10800.000
G1 X146.158 Y62.622
G1 Z0.200
G1 E0.80000 F2100.00000
G1 F1200
G1 X205.375 Y121.839 E2.62744
G1 X205.713 Y121.644 F10800.000
G1 F1200
G1 X147.420 Y63.351 E2.58643
G1 F8640
G1 X149.747 Y65.678 E-0.76000
G1 E-0.04000 F2100.00000
G1 Z0.800 F10800.000
G1 X148.683 Y64.080
G1 Z0.200
G1 E0.80000 F2100.00000
G1 F1200
G1 X206.051 Y121.448 E2.54542
G1 X206.389 Y121.253 F10800.000
G1 F1200
G1 X149.945 Y64.809 E2.50441
G1 F8640
G1 X152.273 Y67.136 E-0.76000
G1 E-0.04000 F2100.00000
G1 Z0.800 F10800.000
G1 X151.208 Y65.538
G1 Z0.200
G1 E0.80000 F2100.00000
G1 F1200
G1 X206.728 Y121.058 E2.46340
G1 X207.066 Y120.862 F10800.000
G1 F1200
G1 X152.470 Y66.267 E2.42240
M73 Q1 S276
M73 P1 R267
