; generated by Slic3r Prusa Edition 1.42.0-alpha5+ on 2019-04-03 at 19:22:20

; 

; external perimeters extrusion width = 0.45mm
; perimeters extrusion width = 0.45mm
; infill extrusion width = 0.45mm
; solid infill extrusion width = 0.45mm
; top infill extrusion width = 0.40mm
; first layer extrusion width = 0.42mm

M73 P0 R268
M73 Q0 S276
M201 X1000 Y1000 Z1000 E5000 ; sets maximum accelerations, mm/sec^2
M203 X200 Y200 Z12 E120 ; sets maximum feedrates, mm/sec
M204 P1250 R1250 T1250 ; sets acceleration (P, T) and retract acceleration (R), mm/sec^2
M205 X8.00 Y8.00 Z0.40 E1.50 ; sets the jerk limits, mm/sec
M205 S0 T0 ; sets the minimum extruding and travel feed rate, mm/sec
M107
M115 U3.5.1 ; tell printer latest fw version
M83  ; extruder relative mode
M104 S215 ; set extruder temp
M140 S60 ; set bed temp
M190 S60 ; wait for bed temp
M109 S215 ; wait for extruder temp
G28 W ; home all without mesh bed level
G80 ; mesh bed leveling
G1 Y-3.0 F1000.0 ; go outside print area
G92 E0.0
G1 X60.0 E9.0  F1000.0 ; intro line
M73 Q0 S276
M73 P0 R268
G1 X100.0 E12.5  F1000.0 ; intro line
G92 E0.0
M221 S95
M900 K30; Filament gcode
G21 ; set units to millimeters
G90 ; use absolute coordinates
M83 ; use relative distances for extrusion
;BEFORE_LAYER_CHANGE
G92 E0.0
;0.2


G1 E-0.80000 F2100.00000
G1 Z0.600 F10800.000
;AFTER_LAYER_CHANGE
;0.2
G1 X42.955 Y110.984
G1 Z0.200
G1 E0.80000 F2100.00000
M204 S1000
G1 F1200
G1 X42.596 Y110.210 E0.02676
G1 X41.962 Y104.853 E0.16913
G1 X41.956 Y91.952 E0.40449
G1 X42.018 Y91.471 E0.01521
G1 X42.184 Y91.016 E0.01521
G1 X87.495 Y12.528 E2.84158
G1 X87.791 Y12.129 E0.01555
G1 X88.172 Y11.806 E0.01567
G1 X99.324 Y5.362 E0.40386
G1 X99.768 Y5.176 E0.01510
G1 X100.242 Y5.091 E0.01510
G1 X190.878 Y5.086 E2.84182
G1 X191.420 Y5.156 E0.01714
G1 X191.929 Y5.357 E0.01714
G1 X203.082 Y11.801 E0.40387
G1 X207.355 Y15.036 E0.16805
G1 X207.829 Y15.684 E0.02518
G1 X208.038 Y16.464 E0.02529
G1 X208.044 Y202.747 E5.84078
G1 X207.886 Y203.542 E0.02541
G1 X207.452 Y204.222 E0.02529
G1 X206.801 Y204.699 E0.02529
G1 X206.022 Y204.907 E0.02529
G1 X205.372 Y204.859 E0.02044
G1 X204.765 Y204.622 E0.02044
G1 X43.585 Y111.565 E5.83549
G1 X42.999 Y111.025 E0.02499
G1 F8640
G1 X42.596 Y110.210 E-0.20991
G1 X42.316 Y107.844 E-0.55009
G1 E-0.04000 F2100.00000
G1 Z0.800 F10800.000
G1 X45.525 Y109.481
G1 Z0.200
G1 E0.80000 F2100.00000
G1 F1200
G1 X47.548 Y105.977 E0.12686
G1 X44.732 Y104.350 E0.10199
G1 X44.732 Y92.328 E0.37694
G1 X55.143 Y86.317 E0.37696
G1 X57.960 Y87.944 E0.10200
G1 X62.631 Y79.855 E0.29286
G1 X59.813 Y78.229 E0.10201
G1 X59.813 Y66.207 E0.37694
G1 X70.225 Y60.196 E0.37696
G1 X73.041 Y61.822 E0.10198
G1 X77.711 Y53.734 E0.29283
G1 X74.894 Y52.107 E0.10202
G1 X74.894 Y40.085 E0.37694
G1 X85.305 Y34.074 E0.37696
G1 X88.122 Y35.701 E0.10200
G1 X92.792 Y27.612 E0.29286
G1 X89.976 Y25.986 E0.10198
G1 X89.976 Y13.964 E0.37694
G1 X100.387 Y7.953 E0.37693
G1 X110.798 Y13.964 E0.37695
G1 X110.798 Y17.217 E0.10200
G1 X120.138 Y17.217 E0.29284
G1 X120.138 Y13.964 E0.10200
G1 X130.549 Y7.953 E0.37695
G1 X140.961 Y13.964 E0.37694
G1 X140.961 Y17.217 E0.10200
G1 X150.300 Y17.217 E0.29284
G1 X150.300 Y13.964 E0.10200
G1 X160.712 Y7.953 E0.37694
G1 X171.123 Y13.964 E0.37695
G1 X171.123 Y17.217 E0.10200
G1 X180.463 Y17.217 E0.29284
G1 X180.463 Y13.964 E0.10200
G1 X190.874 Y7.953 E0.37695
G1 X201.286 Y13.964 E0.37694
G1 X201.286 Y17.217 E0.10200
G1 X205.268 Y17.217 E0.12488
G1 X205.268 Y49.438 E1.01026
G1 X200.712 Y49.438 E0.14287
G1 X199.509 Y48.119 E0.05595
G1 X197.569 Y47.153 E0.06797
G1 X195.411 Y46.953 E0.06795
G1 X193.327 Y47.546 E0.06795
G1 X191.597 Y48.852 E0.06794
G1 X190.456 Y50.694 E0.06796
G1 X190.058 Y52.825 E0.06796
G1 X190.456 Y54.956 E0.06796
G1 X191.597 Y56.798 E0.06796
G1 X193.327 Y58.104 E0.06794
G1 X195.411 Y58.697 E0.06795
G1 X197.569 Y58.497 E0.06795
G1 X199.509 Y57.531 E0.06797
G1 X200.976 Y55.912 E0.06848
G1 X205.268 Y55.912 E0.13458
G1 X205.268 Y139.438 E2.61889
G1 X200.712 Y139.438 E0.14287
G1 X199.509 Y138.119 E0.05596
G1 X197.569 Y137.153 E0.06795
G1 X195.411 Y136.953 E0.06795
G1 X193.327 Y137.546 E0.06795
G1 X191.597 Y138.852 E0.06795
G1 X190.456 Y140.695 E0.06795
G1 X190.058 Y142.825 E0.06795
G1 X190.456 Y144.955 E0.06795
G1 X191.597 Y146.798 E0.06795
G1 X193.327 Y148.104 E0.06795
G1 X195.411 Y148.697 E0.06795
G1 X197.569 Y148.497 E0.06795
G1 X199.509 Y147.531 E0.06795
G1 X200.976 Y145.912 E0.06850
G1 X205.268 Y145.912 E0.13458
G1 X205.268 Y201.708 E1.74945
M73 Q0 S275
M73 P0 R267
G1 X165.640 Y178.828 E1.43476
G1 X167.817 Y175.056 E0.13657
G1 X169.953 Y174.596 E0.06850
G1 X171.759 Y173.398 E0.06795
G1 X173.012 Y171.630 E0.06795
G1 X173.540 Y169.528 E0.06795
G1 X173.274 Y167.377 E0.06795
G1 X172.249 Y165.468 E0.06795
G1 X170.603 Y164.058 E0.06796
G1 X168.559 Y163.337 E0.06795
G1 X166.393 Y163.404 E0.06795
G1 X164.397 Y164.249 E0.06795
G1 X162.841 Y165.757 E0.06795
G1 X161.935 Y167.726 E0.06795
G1 X161.802 Y169.889 E0.06795
G1 X162.343 Y171.590 E0.05596
G1 X160.033 Y175.591 E0.14485
G1 X79.037 Y128.828 E2.93243
G1 X81.215 Y125.056 E0.13656
G1 X83.350 Y124.596 E0.06850
G1 X85.157 Y123.398 E0.06796
G1 X86.409 Y121.629 E0.06795
G1 X86.938 Y119.528 E0.06795
G1 X86.672 Y117.377 E0.06795
G1 X85.646 Y115.468 E0.06796
G1 X84.000 Y114.058 E0.06795
G1 X81.956 Y113.337 E0.06795
G1 X79.790 Y113.404 E0.06796
G1 X77.795 Y114.249 E0.06793
G1 X76.238 Y115.757 E0.06796
G1 X75.332 Y117.726 E0.06795
G1 X75.199 Y119.890 E0.06796
G1 X75.740 Y121.590 E0.05597
G1 X73.431 Y125.591 E0.14485
G1 X45.577 Y109.511 E1.00841
G1 F8640
G1 X47.181 Y106.636 E-0.76000
G1 E-0.04000 F2100.00000
G1 Z0.800 F10800.000
G1 X201.663 Y16.840
G1 Z0.200
G1 E0.80000 F2100.00000
G1 F1200
G1 X205.645 Y16.840 E0.12488
G1 X205.645 Y49.815 E1.03391
G1 X200.545 Y49.815 E0.15991
G1 X199.278 Y48.426 E0.05896
G1 X197.464 Y47.521 E0.06354
G1 X195.447 Y47.335 E0.06353
G1 X193.498 Y47.890 E0.06353
G1 X191.881 Y49.110 E0.06352
G1 X190.814 Y50.833 E0.06353
G1 X190.442 Y52.825 E0.06354
G1 X190.814 Y54.817 E0.06354
G1 X191.881 Y56.540 E0.06353
G1 X193.498 Y57.760 E0.06352
G1 X195.447 Y58.315 E0.06353
G1 X197.464 Y58.129 E0.06353
G1 X199.278 Y57.224 E0.06354
G1 X200.643 Y55.727 E0.06352
G1 X200.718 Y55.535 E0.00647
G1 X205.645 Y55.535 E0.15450
G1 X205.645 Y139.815 E2.64254
G1 X200.545 Y139.815 E0.15991
G1 X199.278 Y138.425 E0.05897
G1 X197.464 Y137.522 E0.06353
G1 X195.447 Y137.335 E0.06353
G1 X193.498 Y137.889 E0.06353
G1 X191.881 Y139.110 E0.06353
G1 X190.814 Y140.833 E0.06353
G1 X190.442 Y142.825 E0.06353
G1 X190.814 Y144.817 E0.06353
G1 X191.881 Y146.540 E0.06353
G1 X193.498 Y147.761 E0.06353
G1 X195.447 Y148.315 E0.06353
G1 X197.464 Y148.128 E0.06353
G1 X199.278 Y147.225 E0.06353
G1 X200.643 Y145.728 E0.06353
G1 X200.718 Y145.535 E0.00647
G1 X205.645 Y145.535 E0.15450
G1 X205.645 Y202.361 E1.78175
G1 X165.124 Y178.966 E1.46706
G1 X167.620 Y174.644 E0.15649
G1 X167.824 Y174.676 E0.00647
G1 X169.803 Y174.242 E0.06353
G1 X171.492 Y173.123 E0.06353
G1 X172.663 Y171.469 E0.06353
G1 X173.157 Y169.504 E0.06353
G1 X172.908 Y167.493 E0.06353
G1 X171.950 Y165.708 E0.06353
G1 X170.411 Y164.390 E0.06354
G1 X168.500 Y163.716 E0.06353
G1 X166.475 Y163.779 E0.06353
G1 X164.609 Y164.569 E0.06353
G1 X163.154 Y165.979 E0.06353
G1 X162.307 Y167.820 E0.06353
G1 X162.182 Y169.842 E0.06353
G1 X162.753 Y171.635 E0.05897
G1 X160.171 Y176.106 E0.16190
G1 X78.522 Y128.966 E2.95607
G1 X81.017 Y124.644 E0.15648
G1 X81.221 Y124.676 E0.00646
G1 X83.201 Y124.242 E0.06354
G1 X84.890 Y123.123 E0.06354
G1 X86.061 Y121.469 E0.06353
G1 X86.555 Y119.504 E0.06353
G1 X86.306 Y117.493 E0.06353
G1 X85.347 Y115.708 E0.06354
G1 X83.808 Y114.390 E0.06353
G1 X81.897 Y113.716 E0.06353
G1 X79.872 Y113.779 E0.06354
G1 X78.007 Y114.569 E0.06351
G1 X76.551 Y115.979 E0.06354
G1 X75.704 Y117.820 E0.06353
G1 X75.579 Y119.842 E0.06353
G1 X76.150 Y121.635 E0.05898
G1 X73.569 Y126.106 E0.16190
G1 X45.010 Y109.619 E1.03394
G1 X47.033 Y106.115 E0.12686
G1 X44.355 Y104.568 E0.09699
G1 X44.355 Y92.110 E0.39060
G1 X55.143 Y85.882 E0.39061
G1 X57.822 Y87.429 E0.09700
G1 X62.115 Y79.993 E0.26921
G1 X59.436 Y78.447 E0.09701
G1 X59.436 Y65.989 E0.39060
G1 X70.225 Y59.760 E0.39061
G1 X72.903 Y61.307 E0.09698
G1 X77.196 Y53.872 E0.26918
G1 X74.516 Y52.325 E0.09703
G1 X74.516 Y39.867 E0.39060
G1 X85.305 Y33.638 E0.39061
G1 X87.984 Y35.186 E0.09700
G1 X92.277 Y27.750 E0.26921
G1 X89.599 Y26.204 E0.09698
G1 X89.599 Y13.746 E0.39060
G1 X100.387 Y7.517 E0.39058
G1 X111.175 Y13.746 E0.39060
G1 X111.175 Y16.840 E0.09700
G1 X119.761 Y16.840 E0.26919
G1 X119.761 Y13.746 E0.09700
G1 X130.549 Y7.517 E0.39060
G1 X141.338 Y13.746 E0.39060
G1 X141.338 Y16.840 E0.09700
G1 X149.923 Y16.840 E0.26919
G1 X149.923 Y13.746 E0.09700
G1 X160.712 Y7.517 E0.39060
G1 X171.500 Y13.746 E0.39060
G1 X171.500 Y16.840 E0.09700
G1 X180.086 Y16.840 E0.26919
G1 X180.086 Y13.746 E0.09700
G1 X190.874 Y7.517 E0.39060
G1 X201.663 Y13.746 E0.39060
G1 X201.663 Y16.780 E0.09512
G1 X201.776 Y17.224 F10800.000
G1 X201.173 Y16.783
G1 F1200
G1 X194.658 Y10.268 E0.28944
G1 F8640
G1 X196.985 Y12.595 E-0.76000
G1 E-0.04000 F2100.00000
G1 Z0.800 F10800.000
G1 X193.394 Y9.538
G1 Z0.200
G1 E0.80000 F2100.00000
G1 F1200
G1 X201.003 Y17.147 E0.33806
G1 X201.003 Y17.500 E0.01107
G1 X201.355 Y17.500 E0.01107
G1 X204.986 Y21.130 E0.16128
G1 X204.986 Y20.596 E0.01678
G1 X201.890 Y17.500 E0.13754
G1 X202.424 Y17.500 E0.01678
G1 X204.986 Y20.061 E0.11381
G1 X204.986 Y19.527 E0.01678
G1 X202.958 Y17.500 E0.09007
G1 X203.493 Y17.500 E0.01678
G1 X204.986 Y18.993 E0.06633
G1 X204.986 Y18.459 E0.01678
G1 X204.027 Y17.500 E0.04259
G1 X204.561 Y17.500 E0.01678
G1 X205.155 Y18.094 E0.02640
G1 F8640
G1 X204.561 Y17.500 E-0.19401
G1 X204.027 Y17.500 E-0.12337
G1 X204.986 Y18.459 E-0.31307
G1 X204.986 Y18.993 E-0.12337
G1 X204.967 Y18.974 E-0.00618
G1 E-0.04000 F2100.00000
G1 Z0.800 F10800.000
G1 X205.155 Y21.834
G1 Z0.200
G1 E0.80000 F2100.00000
G1 F1200
G1 X192.129 Y8.808 E0.57871
G1 F8640
G1 X194.457 Y11.135 E-0.76000
G1 E-0.04000 F2100.00000
G1 Z0.800 F10800.000
G1 X195.922 Y10.998
G1 Z0.200
G1 E0.80000 F2100.00000
G1 F1200
G1 X201.173 Y16.248 E0.23327
G1 X201.173 Y15.714 F10800.000
G1 F1200
G1 X197.186 Y11.728 E0.17711
G1 F8640
G1 X199.513 Y14.055 E-0.76000
G1 E-0.04000 F2100.00000
G1 Z0.800 F10800.000
G1 X198.450 Y12.457
G1 Z0.200
G1 E0.80000 F2100.00000
G1 F1200
G1 X201.173 Y15.180 E0.12095
M73 Q0 S274
G1 X201.173 Y14.646 F10800.000
G1 F1200
G1 X199.714 Y13.187 E0.06478
G1 F8640
G1 X201.173 Y14.646 E-0.47618
G1 E-0.32382 F2100.00000
G1 Z0.800 F10800.000
G1 X205.155 Y22.368
G1 Z0.200
G1 E0.80000 F2100.00000
M73 P0 R266
G1 F1200
G1 X191.329 Y8.542 E0.61427
G1 X190.874 Y8.279 E0.01649
G1 X190.657 Y8.405 E0.00787
G1 X204.986 Y22.733 E0.63656
G1 X204.986 Y23.267 E0.01678
G1 X190.319 Y8.600 E0.65161
G1 X189.980 Y8.796 E0.01229
G1 X204.986 Y23.802 E0.66666
G1 X204.986 Y24.336 E0.01678
G1 X189.641 Y8.991 E0.68171
G1 X189.302 Y9.187 E0.01229
G1 X204.986 Y24.870 E0.69676
G1 X204.986 Y25.404 E0.01678
G1 X188.964 Y9.383 E0.71181
G1 X188.625 Y9.578 E0.01229
G1 X204.986 Y25.939 E0.72686
G1 X204.986 Y26.473 E0.01678
G1 X188.286 Y9.774 E0.74191
G1 X187.947 Y9.969 E0.01229
G1 X204.986 Y27.007 E0.75696
G1 X204.986 Y27.542 E0.01678
G1 X187.609 Y10.165 E0.77200
G1 X187.270 Y10.360 E0.01229
G1 X204.986 Y28.076 E0.78705
G1 X204.986 Y28.610 E0.01678
G1 X186.931 Y10.556 E0.80210
G1 X186.593 Y10.751 E0.01229
G1 X204.986 Y29.145 E0.81715
G1 X204.986 Y29.679 E0.01678
G1 X186.254 Y10.947 E0.83220
G1 X185.915 Y11.143 E0.01229
G1 X204.986 Y30.213 E0.84725
G1 X204.986 Y30.747 E0.01678
G1 X185.576 Y11.338 E0.86230
G1 X185.238 Y11.534 E0.01229
G1 X204.986 Y31.282 E0.87735
G1 X204.986 Y31.816 E0.01678
G1 X184.899 Y11.729 E0.89240
G1 X184.560 Y11.925 E0.01229
G1 X204.986 Y32.350 E0.90744
G1 X204.986 Y32.885 E0.01678
G1 X184.221 Y12.120 E0.92249
G1 X183.883 Y12.316 E0.01229
G1 X204.986 Y33.419 E0.93754
G1 X204.986 Y33.953 E0.01678
G1 X183.544 Y12.512 E0.95259
G1 X183.205 Y12.707 E0.01229
G1 X204.986 Y34.488 E0.96764
G1 X204.986 Y35.022 E0.01678
G1 X182.866 Y12.903 E0.98269
G1 X182.528 Y13.098 E0.01229
G1 X204.986 Y35.556 E0.99774
G1 X204.986 Y36.090 E0.01678
G1 X182.189 Y13.294 E1.01279
G1 X181.850 Y13.489 E0.01229
G1 X204.986 Y36.625 E1.02784
G1 X204.986 Y37.159 E0.01678
G1 X181.512 Y13.685 E1.04288
G1 X181.173 Y13.881 E0.01229
G1 X204.986 Y37.693 E1.05793
G1 X204.986 Y38.228 E0.01678
G1 X180.834 Y14.076 E1.07298
G1 X180.746 Y14.127 E0.00321
G1 X180.746 Y14.522 E0.01240
G1 X204.986 Y38.762 E1.07692
G1 X204.986 Y39.296 E0.01678
G1 X180.746 Y15.056 E1.07692
G1 X180.746 Y15.590 E0.01678
G1 X204.986 Y39.831 E1.07692
G1 X204.986 Y40.365 E0.01678
G1 X180.746 Y16.125 E1.07692
G1 X180.746 Y16.659 E0.01678
G1 X204.986 Y40.899 E1.07692
G1 X204.986 Y41.433 E0.01678
G1 X180.746 Y17.193 E1.07692
G1 X180.746 Y17.500 E0.00963
G1 X180.518 Y17.500 E0.00716
G1 X204.986 Y41.968 E1.08704
G1 X204.986 Y42.502 E0.01678
G1 X179.983 Y17.500 E1.11077
G1 X179.449 Y17.500 E0.01678
G1 X204.986 Y43.036 E1.13451
G1 X204.986 Y43.571 E0.01678
G1 X178.915 Y17.500 E1.15825
M73 Q1 S273
M73 P1 R265
G1 X178.381 Y17.500 E0.01678
G1 X204.986 Y44.105 E1.18199
G1 X204.986 Y44.639 E0.01678
G1 X177.846 Y17.500 E1.20572
G1 X177.312 Y17.500 E0.01678
G1 X204.986 Y45.174 E1.22946
G1 X204.986 Y45.708 E0.01678
G1 X176.778 Y17.500 E1.25320
G1 X176.243 Y17.500 E0.01678
G1 X204.986 Y46.242 E1.27693
G1 X204.986 Y46.776 E0.01678
G1 X175.709 Y17.500 E1.30067
G1 X175.175 Y17.500 E0.01678
G1 X204.986 Y47.311 E1.32441
G1 X204.986 Y47.845 E0.01678
G1 X174.640 Y17.500 E1.34815
G1 X174.106 Y17.500 E0.01678
G1 X204.986 Y48.379 E1.37188
G1 X204.986 Y48.914 E0.01678
G1 X173.572 Y17.500 E1.39562
G1 X173.038 Y17.500 E0.01678
G1 X204.693 Y49.155 E1.40635
G1 X204.159 Y49.155 E0.01678
G1 X172.503 Y17.500 E1.40635
G1 X171.969 Y17.500 E0.01678
G1 X203.624 Y49.155 E1.40635
G1 X203.090 Y49.155 E0.01678
G1 X171.265 Y17.330 E1.41389
G1 X171.010 Y17.075 F10800.000
G1 F1200
G1 X163.803 Y9.868 E0.32018
G1 F8640
G1 X166.131 Y12.196 E-0.76000
G1 E-0.04000 F2100.00000
G1 Z0.800 F10800.000
G1 X162.539 Y9.138
G1 Z0.200
G1 E0.80000 F2100.00000
G1 F1200
G1 X202.725 Y49.325 E1.78536
G1 X202.191 Y49.325 F10800.000
G1 F1200
G1 X161.275 Y8.409 E1.81779
G1 F8640
G1 X163.602 Y10.736 E-0.76000
G1 E-0.04000 F2100.00000
G1 Z0.800 F10800.000
G1 X165.067 Y10.598
G1 Z0.200
G1 E0.80000 F2100.00000
G1 F1200
G1 X171.010 Y16.541 E0.26402
G1 X171.010 Y16.007 F10800.000
G1 F1200
G1 X166.331 Y11.328 E0.20786
G1 F8640
G1 X168.659 Y13.655 E-0.76000
G1 E-0.04000 F2100.00000
G1 Z0.800 F10800.000
G1 X167.596 Y12.058
G1 Z0.200
G1 E0.80000 F2100.00000
G1 F1200
G1 X171.010 Y15.472 E0.15170
G1 X171.010 Y14.938 F10800.000
G1 F1200
G1 X168.860 Y12.788 E0.09553
G1 F8640
G1 X171.010 Y14.938 E-0.70218
G1 E-0.09782 F2100.00000
G1 Z0.800 F10800.000
G1 X170.124 Y13.518
G1 Z0.200
G1 E0.80000 F2100.00000
G1 F1200
G1 X171.010 Y14.404 E0.03937
G1 F8640
G1 X170.124 Y13.518 E-0.28937
G1 E-0.51063 F2100.00000
G1 Z0.800 F10800.000
G1 X140.848 Y14.696
G1 Z0.200
G1 E0.80000 F2100.00000
G1 F1200
G1 X139.269 Y13.118 E0.07012
G1 F8640
G1 X140.848 Y14.696 E-0.51538
G1 E-0.28462 F2100.00000
G1 Z0.800 F10800.000
G1 X138.005 Y12.388
G1 Z0.200
G1 E0.80000 F2100.00000
G1 F1200
G1 X140.848 Y15.231 E0.12628
G1 X140.848 Y15.765 F10800.000
G1 F1200
G1 X136.741 Y11.658 E0.18245
G1 F8640
G1 X139.068 Y13.986 E-0.76000
G1 E-0.04000 F2100.00000
G1 Z0.800 F10800.000
G1 X135.477 Y10.928
G1 Z0.200
G1 E0.80000 F2100.00000
G1 F1200
G1 X140.848 Y16.299 E0.23861
G1 X140.848 Y16.834 F10800.000
G1 F1200
G1 X134.213 Y10.199 E0.29477
G1 F8640
G1 X136.540 Y12.526 E-0.76000
G1 E-0.04000 F2100.00000
G1 Z0.800 F10800.000
G1 X132.948 Y9.469
G1 Z0.200
G1 E0.80000 F2100.00000
G1 F1200
G1 X204.986 Y81.506 E3.20040
G1 X204.986 Y80.972 E0.01678
G1 X141.514 Y17.500 E2.81986
G1 X142.048 Y17.500 E0.01678
G1 X204.986 Y80.437 E2.79612
G1 X204.986 Y79.903 E0.01678
G1 X142.583 Y17.500 E2.77239
M73 Q1 S272
M73 P1 R264
G1 X143.117 Y17.500 E0.01678
G1 X204.986 Y79.369 E2.74865
G1 X204.986 Y78.834 E0.01678
G1 X143.651 Y17.500 E2.72491
G1 X144.185 Y17.500 E0.01678
