; generated by Slic3r Prusa Edition 1.42.0-alpha5+ on 2019-04-03 at 19:23:12

; 

; external perimeters extrusion width = 0.45mm
; perimeters extrusion width = 0.45mm
; infill extrusion width = 0.45mm
; solid infill extrusion width = 0.45mm
; top infill extrusion width = 0.40mm
; first layer extrusion width = 0.42mm

M73 P0 R271
M73 Q0 S279
M201 X1000 Y1000 Z1000 E5000 ; sets maximum accelerations, mm/sec^2
M203 X200 Y200 Z12 E120 ; sets maximum feedrates, mm/sec
M204 P1250 R1250 T1250 ; sets acceleration (P, T) and retract acceleration (R), mm/sec^2
M205 X8.00 Y8.00 Z0.40 E1.50 ; sets the jerk limits, mm/sec
M205 S0 T0 ; sets the minimum extruding and travel feed rate, mm/sec
M107
M115 U3.5.1 ; tell printer latest fw version
M83  ; extruder relative mode
M104 S215 ; set extruder temp
M140 S60 ; set bed temp
M190 S60 ; wait for bed temp
M109 S215 ; wait for extruder temp
G28 W ; home all without mesh bed level
G80 ; mesh bed leveling
G1 Y-3.0 F1000.0 ; go outside print area
G92 E0.0
G1 X60.0 E9.0  F1000.0 ; intro line
M73 Q0 S279
M73 P0 R271
G1 X100.0 E12.5  F1000.0 ; intro line
G92 E0.0
M221 S95
M900 K30; Filament gcode
G21 ; set units to millimeters
G90 ; use absolute coordinates
M83 ; use relative distances for extrusion
;BEFORE_LAYER_CHANGE
G92 E0.0
;0.2


G1 E-0.80000 F2100.00000
G1 Z0.600 F10800.000
;AFTER_LAYER_CHANGE
;0.2
G1 X49.701 Y15.617
G1 Z0.200
G1 E0.80000 F2100.00000
M204 S1000
G1 F1200
G1 X50.271 Y14.934 E0.02788
G1 X54.514 Y11.789 E0.16560
G1 X65.610 Y5.382 E0.40175
G1 X66.462 Y5.115 E0.02799
G1 X157.167 Y5.105 E2.84399
G1 X157.727 Y5.179 E0.01771
G1 X158.250 Y5.393 E0.01771
G1 X169.287 Y11.767 E0.39962
G1 X169.665 Y12.053 E0.01487
G1 X169.974 Y12.417 E0.01498
G1 X215.328 Y90.961 E2.84375
G1 X215.522 Y91.449 E0.01646
G1 X215.594 Y91.965 E0.01635
G1 X215.593 Y104.773 E0.40158
G1 X214.960 Y109.978 E0.16439
G1 X214.725 Y110.689 E0.02349
G1 X192.203 Y140.878 E1.18093
G1 X190.296 Y142.596 E0.08049
G1 X103.484 Y192.733 E3.14327
G1 X101.052 Y193.591 E0.08086
G1 X52.111 Y204.842 E1.57454
G1 X51.337 Y204.875 E0.02428
G1 X50.600 Y204.637 E0.02428
G1 X49.915 Y204.065 E0.02799
G1 X49.514 Y203.263 E0.02810
G1 X34.852 Y145.286 E1.87506
G1 X34.406 Y142.853 E0.07757
G1 X34.422 Y52.581 E2.83041
G1 X34.952 Y50.095 E0.07971
G1 X49.677 Y15.672 E1.17390
G1 F8640
G1 X50.271 Y14.934 E-0.21863
G1 X52.154 Y13.538 E-0.54137
G1 E-0.04000 F2100.00000
G1 Z0.800 F10800.000
G1 X52.218 Y17.235
G1 Z0.200
G1 E0.80000 F2100.00000
G1 F1200
G1 X56.264 Y17.235 E0.12686
G1 X56.264 Y13.982 E0.10200
G1 X66.676 Y7.971 E0.37694
G1 X77.087 Y13.982 E0.37695
G1 X77.087 Y17.235 E0.10200
G1 X86.427 Y17.235 E0.29284
G1 X86.427 Y13.982 E0.10200
G1 X96.838 Y7.971 E0.37695
G1 X107.250 Y13.982 E0.37694
G1 X107.250 Y17.235 E0.10200
G1 X116.589 Y17.235 E0.29284
G1 X116.589 Y13.982 E0.10200
G1 X127.001 Y7.971 E0.37694
G1 X137.412 Y13.982 E0.37695
G1 X137.412 Y17.235 E0.10200
G1 X146.752 Y17.235 E0.29284
G1 X146.752 Y13.982 E0.10200
G1 X157.163 Y7.971 E0.37695
G1 X167.574 Y13.982 E0.37693
G1 X167.574 Y26.004 E0.37694
G1 X164.758 Y27.630 E0.10198
G1 X169.428 Y35.719 E0.29286
G1 X172.245 Y34.092 E0.10200
G1 X182.656 Y40.103 E0.37696
G1 X182.656 Y52.125 E0.37694
G1 X179.839 Y53.752 E0.10202
G1 X184.509 Y61.840 E0.29283
G1 X187.325 Y60.214 E0.10198
G1 X197.737 Y66.225 E0.37696
G1 X197.737 Y78.247 E0.37694
G1 X194.919 Y79.873 E0.10201
G1 X199.590 Y87.962 E0.29286
G1 X202.407 Y86.335 E0.10200
G1 X212.818 Y92.346 E0.37696
G1 X212.818 Y104.368 E0.37694
G1 X210.002 Y105.995 E0.10199
G1 X211.993 Y109.444 E0.12487
G1 X182.812 Y126.292 E1.05649
G1 X186.198 Y132.158 E0.21237
G1 X187.638 Y132.252 E0.04524
G1 X189.178 Y133.012 E0.05385
G1 X190.310 Y134.303 E0.05384
G1 X190.862 Y135.929 E0.05384
G1 X190.749 Y137.643 E0.05385
G1 X189.991 Y139.183 E0.05384
G1 X188.699 Y140.315 E0.05385
G1 X187.072 Y140.867 E0.05387
G1 X185.359 Y140.755 E0.05383
G1 X183.819 Y139.995 E0.05385
G1 X182.687 Y138.704 E0.05384
G1 X182.135 Y137.078 E0.05385
G1 X182.247 Y135.364 E0.05384
G1 X182.885 Y134.071 E0.04523
G1 X179.498 Y128.205 E0.21238
G1 X96.209 Y176.292 E3.01548
G1 X99.596 Y182.158 E0.21238
G1 X101.035 Y182.252 E0.04523
G1 X102.575 Y183.012 E0.05385
G1 X103.708 Y184.303 E0.05385
G1 X104.260 Y185.929 E0.05384
G1 X104.147 Y187.643 E0.05385
G1 X103.388 Y189.183 E0.05385
G1 X102.097 Y190.315 E0.05384
G1 X100.470 Y190.867 E0.05385
G1 X98.757 Y190.755 E0.05385
G1 X97.216 Y189.995 E0.05385
G1 X96.084 Y188.704 E0.05385
G1 X95.532 Y187.078 E0.05385
G1 X95.644 Y185.364 E0.05385
G1 X96.282 Y184.071 E0.04523
G1 X92.896 Y178.205 E0.21238
G1 X52.218 Y201.690 E1.47272
M73 Q0 S278
M73 P0 R270
G1 X52.218 Y144.756 E1.78511
G1 X45.508 Y144.756 E0.21039
G1 X44.707 Y145.956 E0.04523
G1 X43.279 Y146.910 E0.05385
G1 X41.594 Y147.245 E0.05385
G1 X39.910 Y146.910 E0.05385
G1 X38.482 Y145.956 E0.05385
G1 X37.528 Y144.528 E0.05385
G1 X37.193 Y142.843 E0.05385
G1 X37.528 Y141.159 E0.05385
G1 X38.482 Y139.731 E0.05385
G1 X39.910 Y138.777 E0.05385
G1 X41.594 Y138.442 E0.05385
G1 X43.279 Y138.777 E0.05385
G1 X44.707 Y139.731 E0.05385
G1 X45.508 Y140.930 E0.04523
G1 X52.218 Y140.930 E0.21039
G1 X52.218 Y54.756 E2.70193
G1 X45.508 Y54.756 E0.21039
G1 X44.707 Y55.956 E0.04524
G1 X43.279 Y56.909 E0.05383
G1 X41.594 Y57.245 E0.05385
G1 X39.910 Y56.909 E0.05385
G1 X38.482 Y55.956 E0.05383
G1 X37.528 Y54.527 E0.05387
G1 X37.193 Y52.843 E0.05384
G1 X37.528 Y51.159 E0.05384
G1 X38.482 Y49.731 E0.05387
G1 X39.910 Y48.777 E0.05383
G1 X41.594 Y48.442 E0.05385
G1 X43.279 Y48.777 E0.05385
G1 X44.707 Y49.731 E0.05383
G1 X45.508 Y50.930 E0.04524
G1 X52.218 Y50.930 E0.21039
G1 X52.218 Y17.295 E1.05460
G1 F8640
G1 X55.509 Y17.247 E-0.76000
G1 E-0.04000 F2100.00000
G1 Z0.800 F10800.000
G1 X137.789 Y16.858
G1 Z0.200
G1 E0.80000 F2100.00000
G1 F1200
G1 X146.375 Y16.858 E0.26919
G1 X146.375 Y13.765 E0.09700
G1 X157.163 Y7.536 E0.39060
G1 X167.951 Y13.765 E0.39058
G1 X167.951 Y26.222 E0.39060
G1 X165.273 Y27.768 E0.09698
G1 X169.566 Y35.204 E0.26921
G1 X172.245 Y33.657 E0.09700
G1 X183.034 Y39.886 E0.39061
G1 X183.034 Y52.343 E0.39060
G1 X180.354 Y53.890 E0.09703
G1 X184.647 Y61.325 E0.26918
G1 X187.325 Y59.779 E0.09698
G1 X198.114 Y66.008 E0.39061
G1 X198.114 Y78.465 E0.39060
G1 X195.435 Y80.011 E0.09701
G1 X199.728 Y87.447 E0.26921
G1 X202.407 Y85.900 E0.09700
G1 X213.196 Y92.129 E0.39061
G1 X213.196 Y104.586 E0.39060
G1 X210.517 Y106.133 E0.09699
G1 X212.508 Y109.582 E0.12487
G1 X183.327 Y126.430 E1.05649
G1 X186.424 Y131.795 E0.19423
G1 X187.737 Y131.881 E0.04127
G1 X189.412 Y132.707 E0.05856
G1 X190.643 Y134.111 E0.05854
G1 X191.243 Y135.879 E0.05855
G1 X191.121 Y137.742 E0.05855
G1 X190.296 Y139.417 E0.05854
G1 X188.891 Y140.648 E0.05855
G1 X187.123 Y141.249 E0.05857
G1 X185.260 Y141.126 E0.05853
G1 X183.585 Y140.300 E0.05856
G1 X182.354 Y138.897 E0.05854
G1 X181.754 Y137.128 E0.05855
G1 X181.875 Y135.265 E0.05855
G1 X182.457 Y134.085 E0.04126
G1 X179.360 Y128.720 E0.19423
G1 X96.724 Y176.430 E2.99183
G1 X99.821 Y181.795 E0.19423
G1 X101.134 Y181.881 E0.04126
G1 X102.809 Y182.707 E0.05855
G1 X104.040 Y184.111 E0.05855
G1 X104.641 Y185.879 E0.05855
G1 X104.519 Y187.742 E0.05855
G1 X103.693 Y189.417 E0.05855
G1 X102.289 Y190.648 E0.05855
G1 X100.520 Y191.249 E0.05855
G1 X98.657 Y191.126 E0.05855
G1 X96.982 Y190.300 E0.05855
G1 X95.751 Y188.897 E0.05855
G1 X95.151 Y187.128 E0.05855
G1 X95.273 Y185.265 E0.05855
G1 X95.855 Y184.085 E0.04126
G1 X92.758 Y178.720 E0.19423
G1 X51.841 Y202.343 E1.48137
G1 X51.841 Y145.133 E1.79377
G1 X45.710 Y145.133 E0.19225
G1 X44.979 Y146.227 E0.04126
G1 X43.426 Y147.265 E0.05855
G1 X41.594 Y147.629 E0.05855
G1 X39.763 Y147.265 E0.05855
G1 X38.210 Y146.227 E0.05855
G1 X37.173 Y144.675 E0.05855
G1 X36.809 Y142.843 E0.05855
G1 X37.173 Y141.012 E0.05855
G1 X38.210 Y139.459 E0.05855
G1 X39.763 Y138.422 E0.05855
G1 X41.594 Y138.057 E0.05855
G1 X43.426 Y138.422 E0.05855
G1 X44.979 Y139.459 E0.05855
G1 X45.710 Y140.553 E0.04126
G1 X51.841 Y140.553 E0.19225
G1 X51.841 Y55.133 E2.67828
G1 X45.710 Y55.133 E0.19225
G1 X44.979 Y56.228 E0.04127
G1 X43.426 Y57.264 E0.05853
G1 X41.594 Y57.629 E0.05855
G1 X39.763 Y57.264 E0.05855
G1 X38.210 Y56.228 E0.05853
G1 X37.173 Y54.674 E0.05857
G1 X36.809 Y52.843 E0.05854
G1 X37.173 Y51.012 E0.05854
G1 X38.210 Y49.459 E0.05857
G1 X39.763 Y48.422 E0.05853
G1 X41.594 Y48.057 E0.05855
G1 X43.426 Y48.422 E0.05855
G1 X44.979 Y49.459 E0.05853
G1 X45.710 Y50.553 E0.04127
G1 X51.841 Y50.553 E0.19225
G1 X51.841 Y16.858 E1.05648
G1 X55.887 Y16.858 E0.12686
G1 X55.887 Y13.765 E0.09700
G1 X66.676 Y7.536 E0.39060
G1 X77.464 Y13.765 E0.39060
G1 X77.464 Y16.858 E0.09700
G1 X86.050 Y16.858 E0.26919
G1 X86.050 Y13.765 E0.09700
G1 X96.838 Y7.536 E0.39060
G1 X107.627 Y13.765 E0.39060
G1 X107.627 Y16.858 E0.09700
G1 X116.212 Y16.858 E0.26919
G1 X116.212 Y13.765 E0.09700
G1 X127.001 Y7.536 E0.39060
G1 X137.789 Y13.765 E0.39060
G1 X137.789 Y16.798 E0.09512
G1 X137.902 Y17.242 F10800.000
G1 X137.299 Y16.684
G1 F1200
G1 X131.062 Y10.447 E0.27682
G1 F8640
G1 X133.390 Y12.774 E-0.76000
G1 E-0.04000 F2100.00000
G1 Z0.800 F10800.000
G1 X129.799 Y9.718
G1 Z0.200
G1 E0.80000 F2100.00000
G1 F1200
G1 X137.129 Y17.048 E0.32534
G1 X137.129 Y17.518 E0.01477
G1 X137.600 Y17.518 E0.01477
G1 X197.455 Y77.373 E2.65662
G1 X197.455 Y76.839 E0.01675
G1 X138.134 Y17.518 E2.63293
M73 Q0 S277
M73 P0 R268
G1 X138.668 Y17.518 E0.01675
G1 X197.455 Y76.305 E2.60924
G1 X197.455 Y75.771 E0.01675
G1 X139.201 Y17.518 E2.58555
G1 X139.735 Y17.518 E0.01675
G1 X197.624 Y75.407 E2.56939
G1 F8640
G1 X195.297 Y73.080 E-0.76000
G1 E-0.04000 F2100.00000
G1 Z0.800 F10800.000
G1 X197.624 Y78.076
G1 Z0.200
G1 E0.80000 F2100.00000
G1 F1200
G1 X128.536 Y8.988 E3.06643
G1 F8640
G1 X130.864 Y11.316 E-0.76000
G1 E-0.04000 F2100.00000
G1 Z0.800 F10800.000
G1 X132.325 Y11.176
G1 Z0.200
G1 E0.80000 F2100.00000
G1 F1200
G1 X137.299 Y16.150 E0.22076
G1 X137.299 Y15.616 F10800.000
G1 F1200
G1 X133.588 Y11.905 E0.16471
G1 F8640
G1 X135.916 Y14.232 E-0.76000
G1 E-0.04000 F2100.00000
G1 Z0.800 F10800.000
G1 X134.851 Y12.634
G1 Z0.200
G1 E0.80000 F2100.00000
G1 F1200
G1 X137.299 Y15.082 E0.10865
G1 X137.299 Y14.548 F10800.000
G1 F1200
G1 X136.114 Y13.363 E0.05260
G1 F8640
G1 X137.299 Y14.548 E-0.38696
G1 E-0.41304 F2100.00000
G1 Z0.800 F10800.000
G1 X123.013 Y10.404
G1 Z0.200
G1 E0.80000 F2100.00000
G1 F1200
G1 X197.940 Y85.331 E3.32560
G1 F8640
G1 X195.613 Y83.004 E-0.76000
G1 E-0.04000 F2100.00000
G1 Z0.800 F10800.000
G1 X198.669 Y86.594
G1 Z0.200
G1 E0.80000 F2100.00000
G1 F1200
G1 X122.799 Y10.724 E3.36747
G1 X122.460 Y10.919 E0.01226
G1 X198.935 Y87.393 E3.39428
G1 F8640
G1 X196.607 Y85.066 E-0.76000
G1 E-0.04000 F2100.00000
G1 Z0.800 F10800.000
G1 X199.742 Y88.201
G1 Z0.200
G1 E0.80000 F2100.00000
G1 F1200
G1 X212.536 Y100.994 E0.56783
G1 X212.536 Y100.461 E0.01675
G1 X200.080 Y88.005 E0.55282
G1 X200.419 Y87.810 E0.01226
G1 X212.536 Y99.927 E0.53780
G1 X212.536 Y99.393 E0.01675
G1 X200.757 Y87.615 E0.52278
G1 X201.095 Y87.419 E0.01226
G1 X212.536 Y98.859 E0.50777
G1 X212.536 Y98.326 E0.01675
G1 X201.434 Y87.224 E0.49275
G1 X201.772 Y87.028 E0.01226
G1 X212.536 Y97.792 E0.47773
G1 X212.536 Y97.258 E0.01675
G1 X202.111 Y86.833 E0.46271
G1 X202.407 Y86.662 E0.01073
G1 X202.564 Y86.753 E0.00572
G1 X212.705 Y96.894 E0.45010
G1 X212.705 Y96.360 F10800.000
G1 F1200
G1 X203.364 Y87.018 E0.41462
G1 F8640
G1 X205.691 Y89.346 E-0.76000
G1 E-0.04000 F2100.00000
G1 Z0.800 F10800.000
G1 X204.627 Y87.747
G1 Z0.200
G1 E0.80000 F2100.00000
G1 F1200
G1 X212.705 Y95.826 E0.35857
G1 X212.705 Y95.292 F10800.000
G1 F1200
G1 X205.889 Y88.477 E0.30252
G1 F8640
G1 X208.217 Y90.804 E-0.76000
G1 E-0.04000 F2100.00000
G1 Z0.800 F10800.000
G1 X207.152 Y89.206
G1 Z0.200
G1 E0.80000 F2100.00000
G1 F1200
G1 X212.705 Y94.759 E0.24647
G1 X212.705 Y94.225 F10800.000
G1 F1200
G1 X208.415 Y89.935 E0.19042
G1 F8640
G1 X210.743 Y92.262 E-0.76000
G1 E-0.04000 F2100.00000
G1 Z0.800 F10800.000
G1 X209.678 Y90.664
G1 Z0.200
G1 E0.80000 F2100.00000
G1 F1200
G1 X212.705 Y93.691 E0.13436
G1 X212.705 Y93.157 F10800.000
G1 F1200
G1 X210.941 Y91.393 E0.07831
G1 F8640
G1 X212.705 Y93.157 E-0.57615
G1 E-0.22385 F2100.00000
G1 Z0.800 F10800.000
G1 X212.705 Y101.698
G1 Z0.200
G1 E0.80000 F2100.00000
G1 F1200
G1 X122.122 Y11.115 E4.02050
G1 X121.784 Y11.310 E0.01226
G1 X212.536 Y102.062 E4.02799
M73 Q1 S276
M73 P1 R267
G1 X212.536 Y102.596 E0.01675
G1 X121.445 Y11.505 E4.04301
G1 X121.107 Y11.701 E0.01226
G1 X212.536 Y103.130 E4.05803
G1 X212.536 Y103.663 E0.01675
G1 X120.768 Y11.896 E4.07305
G1 X120.430 Y12.091 E0.01226
G1 X212.536 Y104.205 E4.08825
G1 X212.202 Y104.398 E0.01208
G1 X120.091 Y12.287 E4.08829
G1 X119.753 Y12.482 E0.01226
G1 X211.864 Y104.593 E4.08830
G1 X211.526 Y104.788 E0.01226
G1 X119.415 Y12.678 E4.08830
G1 X119.076 Y12.873 E0.01226
G1 X211.187 Y104.984 E4.08830
G1 X210.849 Y105.179 E0.01226
G1 X118.738 Y13.068 E4.08830
G1 X118.399 Y13.264 E0.01226
G1 X210.510 Y105.375 E4.08830
M73 Q1 S275
M73 P1 R266
G1 X210.172 Y105.570 E0.01226
G1 X118.061 Y13.459 E4.08830
G1 X117.723 Y13.654 E0.01226
G1 X209.834 Y105.765 E4.08830
G1 X209.615 Y105.891 E0.00791
G1 X209.874 Y106.340 E0.01624
G1 X117.384 Y13.850 E4.10512
G1 X117.046 Y14.045 E0.01226
G1 X211.066 Y108.066 E4.17306
G1 F8640
G1 X208.739 Y105.738 E-0.76000
G1 E-0.04000 F2100.00000
G1 Z0.800 F10800.000
G1 X211.795 Y109.328
G1 Z0.200
G1 E0.80000 F2100.00000
G1 F1200
G1 X116.872 Y14.405 E4.21312
G1 X116.872 Y14.939 E0.01675
G1 X211.395 Y109.462 E4.19537
G1 X211.057 Y109.658 E0.01226
G1 X116.872 Y15.473 E4.18035
G1 X116.872 Y16.007 E0.01675
G1 X210.719 Y109.853 E4.16533
G1 X210.380 Y110.048 E0.01226
G1 X116.872 Y16.540 E4.15031
M73 Q1 S274
M73 P1 R265
G1 X116.872 Y17.074 E0.01675
G1 X210.042 Y110.244 E4.13529
G1 X209.703 Y110.439 E0.01226
G1 X116.782 Y17.518 E4.12426
G1 X116.248 Y17.518 E0.01675
G1 X209.365 Y110.635 E4.13293
G1 X209.027 Y110.830 E0.01226
G1 X115.715 Y17.518 E4.14160
G1 X115.181 Y17.518 E0.01675
G1 X208.688 Y111.025 E4.15027
G1 X208.350 Y111.221 E0.01226
G1 X114.647 Y17.518 E4.15894
G1 X114.113 Y17.518 E0.01675
G1 X208.011 Y111.416 E4.16762
G1 X207.673 Y111.612 E0.01226
G1 X113.580 Y17.518 E4.17629
G1 X113.046 Y17.518 E0.01675
G1 X207.335 Y111.807 E4.18496
G1 X206.996 Y112.002 E0.01226
G1 X112.512 Y17.518 E4.19363
M73 Q2 S273
M73 P2 R264
G1 X111.978 Y17.518 E0.01675
G1 X206.658 Y112.198 E4.20230
G1 X206.319 Y112.393 E0.01226
G1 X111.444 Y17.518 E4.21098
G1 X110.911 Y17.518 E0.01675
G1 X205.981 Y112.588 E4.21965
G1 X205.642 Y112.784 E0.01226
G1 X110.377 Y17.518 E4.22832
G1 X109.843 Y17.518 E0.01675
G1 X205.304 Y112.979 E4.23699
G1 X204.966 Y113.175 E0.01226
G1 X109.309 Y17.518 E4.24566
G1 X108.775 Y17.518 E0.01675
G1 X204.627 Y113.370 E4.25433
G1 X204.289 Y113.565 E0.01226
G1 X108.242 Y17.518 E4.26301
G1 X107.708 Y17.518 E0.01675
G1 X203.950 Y113.761 E4.27168
M73 Q2 S272
M73 P2 R263
G1 X203.612 Y113.956 E0.01226
G1 X99.014 Y9.358 E4.64254
G1 F8640
G1 X101.341 Y11.685 E-0.76000
G1 E-0.04000 F2100.00000
G1 Z0.800 F10800.000
G1 X97.751 Y8.629
G1 Z0.200
G1 E0.80000 F2100.00000
G1 F1200
G1 X203.398 Y114.276 E4.68909
G1 X203.059 Y114.471 F10800.000
G1 F1200
G1 X96.951 Y8.363 E4.70955
G1 X96.838 Y8.298 E0.00410
G1 X96.530 Y8.476 E0.01116
G1 X202.597 Y114.542 E4.70772
G1 X202.258 Y114.738 E0.01226
G1 X96.192 Y8.671 E4.70772
G1 X95.853 Y8.866 E0.01226
G1 X201.920 Y114.933 E4.70772
G1 X201.582 Y115.128 E0.01226
G1 X95.515 Y9.062 E4.70772
G1 X95.177 Y9.257 E0.01226
G1 X201.243 Y115.324 E4.70772
M73 Q3 S271
M73 P3 R262
G1 X200.905 Y115.519 E0.01226
G1 X94.838 Y9.453 E4.70772
G1 X94.500 Y9.648 E0.01226
G1 X200.566 Y115.714 E4.70772
G1 X200.228 Y115.910 E0.01226
G1 X94.161 Y9.843 E4.70772
G1 X93.823 Y10.039 E0.01226
G1 X199.890 Y116.105 E4.70772
G1 X199.551 Y116.301 E0.01226
G1 X93.485 Y10.234 E4.70772
G1 X93.146 Y10.429 E0.01226
G1 X199.213 Y116.496 E4.70772
G1 X198.874 Y116.691 E0.01226
G1 X92.808 Y10.625 E4.70772
G1 X92.469 Y10.820 E0.01226
G1 X198.536 Y116.887 E4.70772
M73 Q3 S270
M73 P3 R261
G1 X198.198 Y117.082 E0.01226
G1 X92.131 Y11.016 E4.70772
G1 X91.793 Y11.211 E0.01226
G1 X197.859 Y117.278 E4.70772
