; generated by Slic3r Prusa Edition 1.42.0-alpha5+ on 2019-04-03 at 19:23:59

; 

; external perimeters extrusion width = 0.45mm
; perimeters extrusion width = 0.45mm
; infill extrusion width = 0.45mm
; solid infill extrusion width = 0.45mm
; top infill extrusion width = 0.40mm
; first layer extrusion width = 0.42mm

M73 P0 R268
M73 Q0 S276
M201 X1000 Y1000 Z1000 E5000 ; sets maximum accelerations, mm/sec^2
M203 X200 Y200 Z12 E120 ; sets maximum feedrates, mm/sec
M204 P1250 R1250 T1250 ; sets acceleration (P, T) and retract acceleration (R), mm/sec^2
M205 X8.00 Y8.00 Z0.40 E1.50 ; sets the jerk limits, mm/sec
M205 S0 T0 ; sets the minimum extruding and travel feed rate, mm/sec
M107
M115 U3.5.1 ; tell printer latest fw version
M83  ; extruder relative mode
M104 S215 ; set extruder temp
M140 S60 ; set bed temp
M190 S60 ; wait for bed temp
M109 S215 ; wait for extruder temp
G28 W ; home all without mesh bed level
G80 ; mesh bed leveling
G1 Y-3.0 F1000.0 ; go outside print area
G92 E0.0
G1 X60.0 E9.0  F1000.0 ; intro line
M73 Q0 S276
M73 P0 R268
G1 X100.0 E12.5  F1000.0 ; intro line
G92 E0.0
M221 S95
M900 K30; Filament gcode
G21 ; set units to millimeters
G90 ; use absolute coordinates
M83 ; use relative distances for extrusion
;BEFORE_LAYER_CHANGE
G92 E0.0
;0.2


G1 E-0.80000 F2100.00000
G1 Z0.600 F10800.000
;AFTER_LAYER_CHANGE
;0.2
G1 X12.449 Y103.447
G1 Z0.200
G1 E0.80000 F2100.00000
M204 S1000
G1 F1200
G1 X12.899 Y103.099 E0.01783
G1 X174.041 Y10.064 E5.83410
G1 X174.570 Y9.846 E0.01794
G1 X175.137 Y9.773 E0.01794
G1 X175.943 Y9.929 E0.02574
G1 X180.788 Y12.032 E0.16560
G1 X191.878 Y18.434 E0.40151
G1 X192.542 Y19.048 E0.02833
G1 X237.899 Y97.590 E2.84376
G1 X238.115 Y98.115 E0.01783
G1 X238.188 Y98.677 E0.01777
G1 X238.188 Y111.414 E0.39935
G1 X238.126 Y111.895 E0.01521
G1 X237.961 Y112.348 E0.01510
G1 X192.615 Y190.896 E2.84377
G1 X192.295 Y191.298 E0.01612
G1 X191.886 Y191.616 E0.01623
G1 X180.788 Y198.023 E0.40180
G1 X175.963 Y200.076 E0.16440
G1 X175.164 Y200.227 E0.02552
G1 X174.596 Y200.152 E0.01794
G1 X174.071 Y199.935 E0.01783
G1 X12.900 Y106.883 E5.83518
G1 X12.450 Y106.535 E0.01783
G1 X12.104 Y106.084 E0.01783
G1 X11.886 Y105.555 E0.01794
G1 X11.812 Y104.991 E0.01783
G1 X11.886 Y104.427 E0.01783
G1 X12.104 Y103.898 E0.01794
G1 X12.413 Y103.495 E0.01594
G1 F8640
G1 X12.899 Y103.099 E-0.14471
G1 X15.207 Y101.767 E-0.61529
G1 E-0.04000 F2100.00000
G1 Z0.800 F10800.000
G1 X15.174 Y104.991
G1 Z0.200
G1 E0.80000 F2100.00000
G1 F1200
G1 X54.803 Y82.111 E1.43476
G1 X56.981 Y85.883 E0.13657
G1 X56.312 Y87.963 E0.06850
G1 X56.446 Y90.126 E0.06795
G1 X57.352 Y92.095 E0.06795
G1 X58.908 Y93.604 E0.06795
G1 X60.903 Y94.448 E0.06795
G1 X63.069 Y94.515 E0.06795
G1 X65.114 Y93.795 E0.06795
G1 X66.759 Y92.385 E0.06795
G1 X67.785 Y90.476 E0.06795
G1 X68.051 Y88.325 E0.06795
G1 X67.522 Y86.223 E0.06795
G1 X66.270 Y84.454 E0.06795
G1 X64.464 Y83.257 E0.06795
G1 X62.720 Y82.875 E0.05596
G1 X60.410 Y78.874 E0.14486
G1 X141.406 Y32.111 E2.93244
G1 X143.583 Y35.883 E0.13656
G1 X142.915 Y37.963 E0.06849
G1 X143.048 Y40.126 E0.06795
G1 X143.954 Y42.095 E0.06795
G1 X145.510 Y43.604 E0.06794
G1 X147.506 Y44.448 E0.06796
G1 X149.672 Y44.515 E0.06796
G1 X151.716 Y43.795 E0.06795
G1 X153.362 Y42.385 E0.06795
G1 X154.387 Y40.476 E0.06794
G1 X154.654 Y38.325 E0.06795
G1 X154.125 Y36.223 E0.06796
G1 X152.872 Y34.454 E0.06796
G1 X151.067 Y33.257 E0.06793
G1 X149.323 Y32.875 E0.05598
G1 X147.013 Y28.874 E0.14485
G1 X174.917 Y12.763 E1.01027
G1 X176.940 Y16.267 E0.12686
G1 X179.758 Y14.641 E0.10202
G1 X190.169 Y20.652 E0.37693
G1 X190.169 Y32.674 E0.37695
G1 X187.352 Y34.301 E0.10199
G1 X192.022 Y42.389 E0.29284
G1 X194.839 Y40.762 E0.10199
G1 X205.251 Y46.773 E0.37696
G1 X205.251 Y58.795 E0.37694
G1 X202.433 Y60.422 E0.10202
G1 X207.103 Y68.510 E0.29284
G1 X209.920 Y66.884 E0.10199
G1 X220.332 Y72.895 E0.37696
G1 X220.332 Y84.917 E0.37694
G1 X217.514 Y86.544 E0.10202
G1 X222.184 Y94.632 E0.29284
G1 X225.001 Y93.005 E0.10199
G1 X235.413 Y99.016 E0.37696
G1 X235.413 Y111.038 E0.37694
G1 X225.001 Y117.050 E0.37696
G1 X222.184 Y115.423 E0.10199
G1 X217.514 Y123.511 E0.29284
G1 X220.332 Y125.138 E0.10202
G1 X220.332 Y137.160 E0.37694
G1 X209.920 Y143.171 E0.37696
G1 X207.103 Y141.544 E0.10199
G1 X202.433 Y149.633 E0.29284
G1 X205.251 Y151.259 E0.10202
G1 X205.251 Y163.281 E0.37694
G1 X194.839 Y169.293 E0.37696
G1 X192.022 Y167.666 E0.10199
G1 X187.352 Y175.754 E0.29284
M73 Q0 S275
M73 P0 R267
G1 X190.169 Y177.381 E0.10199
G1 X190.169 Y189.403 E0.37695
G1 X179.758 Y195.414 E0.37693
G1 X176.940 Y193.787 E0.10202
G1 X174.949 Y197.237 E0.12487
G1 X147.045 Y181.126 E1.01027
G1 X149.323 Y177.180 E0.14286
G1 X151.067 Y176.798 E0.05598
G1 X152.872 Y175.601 E0.06793
G1 X154.125 Y173.832 E0.06796
G1 X154.654 Y171.730 E0.06796
G1 X154.387 Y169.579 E0.06795
G1 X153.362 Y167.670 E0.06794
G1 X151.716 Y166.260 E0.06795
G1 X149.672 Y165.540 E0.06795
G1 X147.506 Y165.606 E0.06796
G1 X145.510 Y166.451 E0.06796
G1 X143.954 Y167.960 E0.06794
G1 X143.048 Y169.929 E0.06795
G1 X142.915 Y172.092 E0.06795
G1 X143.583 Y174.172 E0.06850
G1 X141.438 Y177.889 E0.13457
G1 X77.762 Y141.126 E2.30536
G1 X80.041 Y137.180 E0.14287
G1 X81.784 Y136.798 E0.05596
G1 X83.591 Y135.601 E0.06795
G1 X84.843 Y133.832 E0.06795
G1 X85.372 Y131.730 E0.06795
G1 X85.105 Y129.579 E0.06795
G1 X84.080 Y127.670 E0.06795
G1 X82.434 Y126.260 E0.06795
G1 X80.390 Y125.540 E0.06795
G1 X78.224 Y125.607 E0.06795
G1 X76.228 Y126.451 E0.06795
G1 X74.672 Y127.960 E0.06795
G1 X73.766 Y129.929 E0.06795
G1 X73.633 Y132.092 E0.06795
G1 X74.302 Y134.172 E0.06850
G1 X72.156 Y137.889 E0.13458
G1 X15.226 Y105.021 E2.06111
G1 F8640
G1 X18.075 Y103.372 E-0.76000
G1 E-0.04000 F2100.00000
G1 Z0.800 F10800.000
G1 X177.078 Y15.752
G1 Z0.200
G1 E0.80000 F2100.00000
G1 F1200
G1 X179.758 Y14.205 E0.09702
G1 X190.546 Y20.434 E0.39058
G1 X190.546 Y32.892 E0.39060
G1 X187.867 Y34.439 E0.09699
G1 X192.160 Y41.874 E0.26920
G1 X194.839 Y40.327 E0.09699
G1 X205.628 Y46.556 E0.39061
G1 X205.628 Y59.013 E0.39060
G1 X202.948 Y60.560 E0.09702
G1 X207.241 Y67.995 E0.26920
G1 X209.920 Y66.448 E0.09699
G1 X220.709 Y72.677 E0.39061
G1 X220.709 Y85.135 E0.39060
G1 X218.029 Y86.682 E0.09702
G1 X222.322 Y94.117 E0.26920
G1 X225.001 Y92.570 E0.09699
G1 X235.790 Y98.799 E0.39061
G1 X235.790 Y111.256 E0.39060
G1 X225.001 Y117.485 E0.39061
G1 X222.322 Y115.938 E0.09699
G1 X218.029 Y123.373 E0.26920
G1 X220.709 Y124.920 E0.09702
G1 X220.709 Y137.378 E0.39060
G1 X209.920 Y143.606 E0.39061
G1 X207.241 Y142.060 E0.09699
G1 X202.948 Y149.495 E0.26920
G1 X205.628 Y151.042 E0.09702
G1 X205.628 Y163.499 E0.39060
G1 X194.839 Y169.728 E0.39061
G1 X192.160 Y168.181 E0.09699
G1 X187.867 Y175.616 E0.26920
G1 X190.546 Y177.163 E0.09699
G1 X190.546 Y189.621 E0.39060
G1 X179.758 Y195.849 E0.39058
G1 X177.078 Y194.303 E0.09702
G1 X175.087 Y197.752 E0.12487
G1 X146.530 Y181.264 E1.03391
G1 X149.079 Y176.847 E0.15990
G1 X150.917 Y176.445 E0.05899
G1 X152.605 Y175.326 E0.06351
G1 X153.777 Y173.672 E0.06354
G1 X154.271 Y171.707 E0.06353
G1 X154.021 Y169.696 E0.06353
G1 X153.063 Y167.911 E0.06352
G1 X151.525 Y166.592 E0.06353
G1 X149.613 Y165.919 E0.06353
G1 X147.588 Y165.981 E0.06354
G1 X145.722 Y166.771 E0.06354
G1 X144.267 Y168.182 E0.06352
G1 X143.421 Y170.022 E0.06353
G1 X143.296 Y172.045 E0.06353
G1 X143.909 Y173.976 E0.06352
G1 X144.039 Y174.137 E0.00648
G1 X141.576 Y178.404 E0.15449
G1 X77.247 Y141.264 E2.32900
G1 X79.797 Y136.847 E0.15991
G1 X81.635 Y136.445 E0.05897
G1 X83.324 Y135.326 E0.06353
G1 X84.494 Y133.672 E0.06353
G1 X84.989 Y131.707 E0.06353
G1 X84.740 Y129.696 E0.06353
G1 X83.781 Y127.911 E0.06353
G1 X82.242 Y126.592 E0.06353
G1 X80.331 Y125.919 E0.06353
G1 X78.306 Y125.981 E0.06353
G1 X76.440 Y126.771 E0.06353
G1 X74.985 Y128.182 E0.06353
G1 X74.138 Y130.022 E0.06353
G1 X74.014 Y132.045 E0.06353
G1 X74.628 Y133.976 E0.06353
G1 X74.757 Y134.137 E0.00647
G1 X72.294 Y138.404 E0.15450
G1 X14.420 Y104.991 E2.09529
G1 X54.941 Y81.596 E1.46706
G1 X57.437 Y85.918 E0.15649
G1 X57.307 Y86.079 E0.00647
G1 X56.693 Y88.010 E0.06353
G1 X56.818 Y90.033 E0.06353
G1 X57.665 Y91.873 E0.06353
G1 X59.119 Y93.284 E0.06353
G1 X60.985 Y94.074 E0.06353
G1 X63.011 Y94.136 E0.06353
G1 X64.922 Y93.463 E0.06353
G1 X66.461 Y92.144 E0.06353
G1 X67.419 Y90.359 E0.06353
G1 X67.668 Y88.348 E0.06353
G1 X67.174 Y86.383 E0.06353
G1 X66.003 Y84.729 E0.06353
G1 X64.314 Y83.610 E0.06353
G1 X62.477 Y83.208 E0.05897
G1 X59.895 Y78.736 E0.16190
G1 X141.544 Y31.596 E2.95608
G1 X144.039 Y35.918 E0.15648
G1 X143.909 Y36.079 E0.00648
G1 X143.296 Y38.010 E0.06352
G1 X143.421 Y40.033 E0.06353
G1 X144.267 Y41.873 E0.06353
G1 X145.722 Y43.284 E0.06352
G1 X147.588 Y44.074 E0.06354
G1 X149.613 Y44.136 E0.06354
G1 X151.525 Y43.463 E0.06353
G1 X153.063 Y42.144 E0.06353
G1 X154.021 Y40.359 E0.06352
G1 X154.271 Y38.348 E0.06353
G1 X153.777 Y36.383 E0.06353
G1 X152.605 Y34.729 E0.06354
G1 X150.917 Y33.610 E0.06351
G1 X149.079 Y33.208 E0.05899
G1 X146.498 Y28.736 E0.16190
G1 X175.055 Y12.248 E1.03391
G1 X177.048 Y15.700 E0.12498
G1 X177.416 Y15.966 F10800.000
G1 X176.325 Y15.768
G1 F1200
G1 X174.112 Y13.555 E0.09829
G1 X173.773 Y13.750 E0.01227
G1 X189.886 Y29.863 E0.71546
G1 X189.886 Y30.397 E0.01677
G1 X173.435 Y13.946 E0.73049
G1 X173.096 Y14.141 E0.01227
G1 X189.886 Y30.931 E0.74552
G1 X189.886 Y31.465 E0.01677
G1 X172.757 Y14.337 E0.76056
M73 Q0 S274
M73 P0 R266
G1 X172.419 Y14.532 E0.01227
G1 X189.886 Y31.999 E0.77559
G1 X189.886 Y32.511 E0.01607
G1 X189.872 Y32.519 E0.00051
G1 X172.080 Y14.728 E0.78999
G1 X171.742 Y14.923 E0.01227
G1 X189.533 Y32.714 E0.78999
G1 X189.195 Y32.910 E0.01227
G1 X171.403 Y15.119 E0.78999
G1 X171.065 Y15.314 E0.01227
G1 X188.856 Y33.105 E0.79000
G1 X188.518 Y33.301 E0.01227
G1 X170.726 Y15.509 E0.79000
G1 X170.388 Y15.705 E0.01227
G1 X188.179 Y33.496 E0.79000
G1 X187.840 Y33.692 E0.01227
G1 X170.049 Y15.900 E0.79000
G1 X169.711 Y16.096 E0.01227
G1 X187.502 Y33.887 E0.79000
G1 X187.163 Y34.083 E0.01227
G1 X169.372 Y16.291 E0.79000
G1 X169.033 Y16.487 E0.01227
G1 X187.732 Y35.185 E0.83027
G1 F8640
G1 X185.405 Y32.858 E-0.76000
G1 E-0.04000 F2100.00000
G1 Z0.800 F10800.000
G1 X188.462 Y36.449
G1 Z0.200
G1 E0.80000 F2100.00000
G1 F1200
G1 X168.695 Y16.682 E0.87770
G1 X168.356 Y16.878 E0.01227
G1 X189.191 Y37.712 E0.92513
G1 F8640
G1 X186.864 Y35.385 E-0.76000
G1 E-0.04000 F2100.00000
G1 Z0.800 F10800.000
G1 X189.921 Y38.976
G1 Z0.200
G1 E0.80000 F2100.00000
G1 F1200
G1 X168.018 Y17.073 E0.97256
G1 X167.679 Y17.269 E0.01227
G1 X190.650 Y40.240 E1.01999
G1 F8640
G1 X188.323 Y37.912 E-0.76000
G1 E-0.04000 F2100.00000
G1 Z0.800 F10800.000
G1 X191.380 Y41.503
G1 Z0.200
G1 E0.80000 F2100.00000
G1 F1200
G1 X167.216 Y17.340 E1.07293
G1 F8640
G1 X169.544 Y19.667 E-0.76000
G1 E-0.04000 F2100.00000
G1 Z0.800 F10800.000
G1 X175.330 Y13.705
G1 Z0.200
G1 E0.80000 F2100.00000
G1 F1200
G1 X174.789 Y13.164 E0.02403
G1 X174.450 Y13.359 E0.01227
G1 X176.059 Y14.968 E0.07145
G1 F8640
G1 X174.450 Y13.359 E-0.52543
G1 X174.789 Y13.164 E-0.09027
G1 X175.231 Y13.606 E-0.14430
G1 E-0.04000 F2100.00000
G1 Z0.800 F10800.000
G1 X177.074 Y16.517
G1 Z0.200
G1 E0.80000 F2100.00000
G1 F1200
G1 X189.886 Y29.329 E0.56891
G1 X189.886 Y28.795 E0.01677
G1 X177.412 Y16.321 E0.55387
G1 X177.751 Y16.126 E0.01227
G1 X189.886 Y28.261 E0.53884
G1 X189.886 Y27.727 E0.01677
G1 X178.089 Y15.930 E0.52381
G1 X178.428 Y15.735 E0.01227
G1 X189.886 Y27.193 E0.50877
G1 X189.886 Y26.659 E0.01677
G1 X178.766 Y15.540 E0.49374
G1 X179.105 Y15.344 E0.01227
G1 X189.886 Y26.125 E0.47871
G1 X189.886 Y25.591 E0.01677
G1 X179.444 Y15.149 E0.46367
G1 X179.758 Y14.967 E0.01139
G1 X179.849 Y15.020 E0.00331
G1 X190.056 Y25.227 E0.45320
G1 X190.056 Y24.693 F10800.000
G1 F1200
G1 X180.649 Y15.286 E0.41768
G1 F8640
G1 X182.976 Y17.613 E-0.76000
G1 E-0.04000 F2100.00000
G1 Z0.800 F10800.000
G1 X181.913 Y16.016
G1 Z0.200
G1 E0.80000 F2100.00000
G1 F1200
G1 X190.056 Y24.159 E0.36157
G1 X190.056 Y23.625 F10800.000
G1 F1200
G1 X183.176 Y16.745 E0.30547
G1 F8640
G1 X185.503 Y19.073 E-0.76000
G1 E-0.04000 F2100.00000
G1 Z0.800 F10800.000
G1 X184.440 Y17.475
G1 Z0.200
G1 E0.80000 F2100.00000
G1 F1200
G1 X190.056 Y23.091 E0.24936
G1 X190.056 Y22.557 F10800.000
G1 F1200
G1 X185.703 Y18.204 E0.19326
G1 F8640
G1 X188.031 Y20.532 E-0.76000
G1 E-0.04000 F2100.00000
G1 Z0.800 F10800.000
G1 X186.967 Y18.934
G1 Z0.200
G1 E0.80000 F2100.00000
G1 F1200
G1 X190.056 Y22.023 E0.13715
G1 X190.056 Y21.489 F10800.000
G1 F1200
G1 X188.230 Y19.663 E0.08104
G1 F8640
G1 X190.056 Y21.489 E-0.59600
G1 E-0.20400 F2100.00000
G1 Z0.800 F10800.000
G1 X195.319 Y41.170
G1 Z0.200
G1 E0.80000 F2100.00000
G1 F1200
G1 X205.138 Y50.989 E0.43598
G1 X205.138 Y51.523 F10800.000
G1 F1200
G1 X194.753 Y41.138 E0.46110
G1 X194.415 Y41.334 E0.01227
G1 X204.968 Y51.887 E0.46860
G1 X204.968 Y52.421 E0.01677
G1 X194.076 Y41.529 E0.48363
G1 X193.737 Y41.725 E0.01227
G1 X204.968 Y52.955 E0.49866
G1 X204.968 Y53.489 E0.01677
G1 X193.399 Y41.920 E0.51370
G1 X193.060 Y42.116 E0.01227
G1 X204.968 Y54.023 E0.52873
G1 X204.968 Y54.557 E0.01677
G1 X192.722 Y42.311 E0.54376
G1 X192.383 Y42.507 E0.01227
G1 X204.968 Y55.091 E0.55879
G1 X204.968 Y55.625 E0.01677
G1 X167.002 Y17.660 E1.68580
G1 X166.664 Y17.855 E0.01227
G1 X204.968 Y56.159 E1.70083
G1 X204.968 Y56.693 E0.01677
G1 X166.325 Y18.050 E1.71587
G1 X165.986 Y18.246 E0.01227
G1 X204.968 Y57.227 E1.73090
G1 X204.968 Y57.761 E0.01677
G1 X165.648 Y18.441 E1.74593
G1 X165.309 Y18.637 E0.01227
G1 X204.968 Y58.295 E1.76096
M73 Q1 S273
M73 P1 R265
G1 X204.968 Y58.632 E0.01058
G1 X204.843 Y58.704 E0.00453
G1 X164.971 Y18.832 E1.77045
G1 X164.632 Y19.028 E0.01227
G1 X204.504 Y58.900 E1.77044
G1 X204.166 Y59.095 E0.01227
G1 X164.294 Y19.223 E1.77044
G1 X163.955 Y19.419 E0.01227
G1 X203.827 Y59.291 E1.77044
G1 X203.489 Y59.486 E0.01227
G1 X163.617 Y19.614 E1.77044
G1 X163.278 Y19.810 E0.01227
G1 X203.150 Y59.681 E1.77044
G1 X202.811 Y59.877 E0.01227
G1 X162.940 Y20.005 E1.77044
G1 X162.601 Y20.201 E0.01227
G1 X202.473 Y60.072 E1.77044
G1 X202.134 Y60.268 E0.01227
G1 X162.262 Y20.396 E1.77043
G1 X161.924 Y20.591 E0.01227
G1 X203.050 Y61.718 E1.82615
G1 F8640
G1 X200.723 Y59.391 E-0.76000
G1 E-0.04000 F2100.00000
G1 Z0.800 F10800.000
G1 X203.780 Y62.982
G1 Z0.200
G1 E0.80000 F2100.00000
G1 F1200
G1 X161.585 Y20.787 E1.87357
G1 X161.247 Y20.982 E0.01227
G1 X204.509 Y64.245 E1.92100
G1 F8640
G1 X202.182 Y61.918 E-0.76000
G1 E-0.04000 F2100.00000
G1 Z0.800 F10800.000
G1 X205.239 Y65.509
G1 Z0.200
G1 E0.80000 F2100.00000
G1 F1200
G1 X160.908 Y21.178 E1.96843
G1 X160.570 Y21.373 E0.01227
G1 X205.969 Y66.772 E2.01586
G1 F8640
G1 X203.641 Y64.445 E-0.76000
G1 E-0.04000 F2100.00000
G1 Z0.800 F10800.000
G1 X206.698 Y68.036
G1 Z0.200
G1 E0.80000 F2100.00000
G1 F1200
G1 X160.231 Y21.569 E2.06329
G1 X159.893 Y21.764 E0.01227
G1 X220.049 Y81.920 E2.67113
G1 X220.049 Y82.455 E0.01677
G1 X159.554 Y21.960 E2.68616
G1 X159.216 Y22.155 E0.01227
G1 X220.049 Y82.989 E2.70120
G1 X220.049 Y83.523 E0.01677
G1 X158.877 Y22.351 E2.71623
M73 Q1 S272
M73 P1 R264
G1 X158.538 Y22.546 E0.01227
G1 X220.049 Y84.057 E2.73126
G1 X220.049 Y84.591 E0.01677
G1 X158.200 Y22.742 E2.74629
G1 X157.861 Y22.937 E0.01227
G1 X219.814 Y84.889 E2.75088
G1 X219.475 Y85.085 E0.01227
G1 X157.523 Y23.133 E2.75088
G1 X157.184 Y23.328 E0.01227
G1 X219.137 Y85.280 E2.75088
G1 X218.798 Y85.476 E0.01227
G1 X156.846 Y23.523 E2.75088
G1 X156.507 Y23.719 E0.01227
G1 X218.459 Y85.671 E2.75088
G1 X218.121 Y85.867 E0.01227
G1 X156.169 Y23.914 E2.75088
G1 X155.830 Y24.110 E0.01227
G1 X217.782 Y86.062 E2.75088
G1 X217.444 Y86.257 E0.01227
G1 X155.491 Y24.305 E2.75088
G1 X155.153 Y24.501 E0.01227
G1 X217.639 Y86.987 E2.77459
G1 F8640
G1 X215.312 Y84.659 E-0.76000
G1 E-0.04000 F2100.00000
G1 Z0.800 F10800.000
G1 X218.369 Y88.250
G1 Z0.200
G1 E0.80000 F2100.00000
G1 F1200
G1 X154.814 Y24.696 E2.82201
G1 X154.476 Y24.892 E0.01227
G1 X219.098 Y89.514 E2.86944
G1 F8640
G1 X216.771 Y87.187 E-0.76000
G1 E-0.04000 F2100.00000
G1 Z0.800 F10800.000
G1 X219.828 Y90.778
G1 Z0.200
G1 E0.80000 F2100.00000
