; generated by Slic3r Prusa Edition 1.42.0-alpha5+ on 2019-04-03 at 19:21:23

; 

; external perimeters extrusion width = 0.45mm
; perimeters extrusion width = 0.45mm
; infill extrusion width = 0.45mm
; solid infill extrusion width = 0.45mm
; top infill extrusion width = 0.40mm
; first layer extrusion width = 0.42mm

M73 P0 R272
M73 Q0 S280
M201 X1000 Y1000 Z1000 E5000 ; sets maximum accelerations, mm/sec^2
M203 X200 Y200 Z12 E120 ; sets maximum feedrates, mm/sec
M204 P1250 R1250 T1250 ; sets acceleration (P, T) and retract acceleration (R), mm/sec^2
M205 X8.00 Y8.00 Z0.40 E1.50 ; sets the jerk limits, mm/sec
M205 S0 T0 ; sets the minimum extruding and travel feed rate, mm/sec
M107
M115 U3.5.1 ; tell printer latest fw version
M83  ; extruder relative mode
M104 S215 ; set extruder temp
M140 S60 ; set bed temp
M190 S60 ; wait for bed temp
M109 S215 ; wait for extruder temp
G28 W ; home all without mesh bed level
G80 ; mesh bed leveling
G1 Y-3.0 F1000.0 ; go outside print area
G92 E0.0
G1 X60.0 E9.0  F1000.0 ; intro line
M73 Q0 S280
M73 P0 R272
G1 X100.0 E12.5  F1000.0 ; intro line
G92 E0.0
M221 S95
M900 K30; Filament gcode
G21 ; set units to millimeters
G90 ; use absolute coordinates
M83 ; use relative distances for extrusion
;BEFORE_LAYER_CHANGE
G92 E0.0
;0.2


G1 E-0.80000 F2100.00000
G1 Z0.600 F10800.000
;AFTER_LAYER_CHANGE
;0.2
G1 X74.840 Y9.773
G1 Z0.200
G1 E0.80000 F2100.00000
M204 S1000
G1 F1200
G1 X112.168 Y14.185 E1.17855
G1 X114.610 Y14.977 E0.08047
G1 X201.439 Y65.092 E3.14339
G1 X203.395 Y66.768 E0.08075
G1 X237.609 Y103.526 E1.57454
G1 X238.038 Y104.213 E0.02541
G1 X238.188 Y105.010 E0.02541
G1 X238.038 Y105.806 E0.02541
G1 X237.608 Y106.493 E0.02541
G1 X203.395 Y143.177 E1.57282
G1 X201.437 Y144.854 E0.08080
G1 X114.608 Y194.969 E3.14339
G1 X112.173 Y195.760 E0.08027
G1 X74.867 Y200.227 E1.17807
G1 X74.057 Y200.071 E0.02586
G1 X69.212 Y197.968 E0.16561
G1 X58.122 Y191.566 E0.40151
G1 X57.458 Y190.952 E0.02833
G1 X12.101 Y112.410 E2.84376
G1 X11.885 Y111.885 E0.01783
G1 X11.812 Y111.323 E0.01777
G1 X11.812 Y98.586 E0.39935
G1 X11.874 Y98.105 E0.01521
G1 X12.039 Y97.652 E0.01510
G1 X57.385 Y19.104 E2.84377
G1 X57.705 Y18.702 E0.01612
G1 X58.114 Y18.384 E0.01623
G1 X69.212 Y11.977 E0.40180
G1 X74.037 Y9.924 E0.16440
G1 X74.781 Y9.784 E0.02375
G1 F8640
G1 X78.050 Y10.169 E-0.76000
G1 E-0.04000 F2100.00000
G1 Z0.800 F10800.000
G1 X75.051 Y12.763
G1 Z0.200
G1 E0.80000 F2100.00000
G1 F1200
G1 X104.232 Y29.611 E1.05649
G1 X107.619 Y23.745 E0.21236
G1 X106.981 Y22.452 E0.04522
G1 X106.869 Y20.738 E0.05385
G1 X107.421 Y19.111 E0.05385
G1 X108.553 Y17.820 E0.05384
G1 X110.093 Y17.061 E0.05385
G1 X111.807 Y16.949 E0.05385
G1 X113.433 Y17.501 E0.05384
G1 X114.724 Y18.633 E0.05385
G1 X115.484 Y20.173 E0.05385
G1 X115.596 Y21.887 E0.05384
G1 X115.044 Y23.513 E0.05385
G1 X113.912 Y24.804 E0.05384
G1 X112.371 Y25.564 E0.05385
G1 X110.933 Y25.658 E0.04520
G1 X107.545 Y31.524 E0.21239
G1 X190.835 Y79.611 E3.01548
G1 X194.222 Y73.745 E0.21238
G1 X193.584 Y72.451 E0.04523
G1 X193.471 Y70.738 E0.05385
G1 X194.023 Y69.112 E0.05385
G1 X195.156 Y67.820 E0.05384
G1 X196.696 Y67.061 E0.05385
G1 X198.410 Y66.949 E0.05385
G1 X200.036 Y67.501 E0.05384
G1 X201.327 Y68.633 E0.05385
G1 X202.087 Y70.173 E0.05385
G1 X202.199 Y71.887 E0.05385
G1 X201.647 Y73.513 E0.05384
G1 X200.514 Y74.804 E0.05385
G1 X198.974 Y75.564 E0.05385
G1 X197.535 Y75.658 E0.04522
G1 X194.148 Y81.524 E0.21238
G1 X234.826 Y105.009 E1.47272
G1 X194.180 Y128.476 E1.47157
G1 X197.535 Y134.287 E0.21039
G1 X198.974 Y134.381 E0.04522
G1 X200.514 Y135.141 E0.05385
G1 X201.647 Y136.432 E0.05385
G1 X202.199 Y138.058 E0.05384
G1 X202.087 Y139.772 E0.05385
G1 X201.327 Y141.312 E0.05385
G1 X200.036 Y142.445 E0.05385
G1 X198.410 Y142.997 E0.05384
G1 X196.696 Y142.884 E0.05385
G1 X195.156 Y142.125 E0.05385
G1 X194.023 Y140.834 E0.05384
G1 X193.471 Y139.207 E0.05385
G1 X193.584 Y137.494 E0.05385
G1 X194.222 Y136.200 E0.04523
G1 X190.867 Y130.389 E0.21039
G1 X107.577 Y178.476 E3.01547
G1 X110.933 Y184.287 E0.21040
G1 X112.371 Y184.381 E0.04520
G1 X113.912 Y185.141 E0.05385
G1 X115.044 Y186.432 E0.05384
G1 X115.596 Y188.058 E0.05385
G1 X115.484 Y189.772 E0.05384
G1 X114.724 Y191.312 E0.05385
G1 X113.433 Y192.445 E0.05385
G1 X111.807 Y192.997 E0.05384
G1 X110.093 Y192.884 E0.05385
G1 X108.553 Y192.125 E0.05385
G1 X107.421 Y190.834 E0.05384
G1 X106.869 Y189.207 E0.05385
G1 X106.981 Y187.494 E0.05385
G1 X107.619 Y186.200 E0.04522
G1 X104.264 Y180.389 E0.21037
G1 X75.083 Y197.237 E1.05649
G1 X73.060 Y193.733 E0.12686
M73 Q0 S279
M73 P0 R271
G1 X70.242 Y195.359 E0.10202
G1 X59.831 Y189.348 E0.37693
G1 X59.831 Y177.326 E0.37695
G1 X62.648 Y175.699 E0.10199
G1 X57.978 Y167.611 E0.29284
G1 X55.161 Y169.238 E0.10199
G1 X44.749 Y163.227 E0.37696
G1 X44.749 Y151.205 E0.37694
G1 X47.567 Y149.578 E0.10202
G1 X42.897 Y141.490 E0.29284
G1 X40.080 Y143.116 E0.10199
G1 X29.668 Y137.105 E0.37696
G1 X29.668 Y125.083 E0.37694
G1 X32.486 Y123.456 E0.10202
G1 X27.816 Y115.368 E0.29284
G1 X24.999 Y116.995 E0.10199
G1 X14.587 Y110.984 E0.37696
G1 X14.587 Y98.962 E0.37694
G1 X24.999 Y92.950 E0.37696
G1 X27.816 Y94.577 E0.10199
G1 X32.486 Y86.489 E0.29284
G1 X29.668 Y84.862 E0.10202
G1 X29.668 Y72.840 E0.37694
G1 X40.080 Y66.829 E0.37696
G1 X42.897 Y68.456 E0.10199
G1 X47.567 Y60.367 E0.29284
G1 X44.749 Y58.741 E0.10202
G1 X44.749 Y46.719 E0.37694
G1 X55.161 Y40.707 E0.37696
G1 X57.978 Y42.334 E0.10199
G1 X62.648 Y34.246 E0.29284
G1 X59.831 Y32.619 E0.10199
G1 X59.831 Y20.597 E0.37695
G1 X70.242 Y14.586 E0.37693
G1 X73.060 Y16.212 E0.10202
G1 X75.021 Y12.815 E0.12299
G1 F8640
G1 X77.875 Y14.456 E-0.76000
G1 E-0.04000 F2100.00000
G1 Z0.800 F10800.000
G1 X104.094 Y29.096
G1 Z0.200
G1 E0.80000 F2100.00000
G1 F1200
G1 X107.191 Y23.731 E0.19423
G1 X106.610 Y22.551 E0.04125
G1 X106.488 Y20.688 E0.05855
G1 X107.088 Y18.919 E0.05855
G1 X108.319 Y17.515 E0.05854
G1 X109.994 Y16.689 E0.05856
G1 X111.857 Y16.567 E0.05856
G1 X113.625 Y17.168 E0.05854
G1 X115.029 Y18.399 E0.05856
G1 X115.855 Y20.074 E0.05855
G1 X115.977 Y21.937 E0.05855
G1 X115.377 Y23.705 E0.05855
G1 X114.146 Y25.109 E0.05854
G1 X112.471 Y25.935 E0.05856
G1 X111.159 Y26.021 E0.04124
G1 X108.060 Y31.386 E0.19424
G1 X190.697 Y79.096 E2.99184
G1 X193.794 Y73.731 E0.19423
G1 X193.212 Y72.551 E0.04126
G1 X193.090 Y70.688 E0.05855
G1 X193.690 Y68.919 E0.05855
G1 X194.922 Y67.515 E0.05855
G1 X196.596 Y66.689 E0.05855
G1 X198.460 Y66.567 E0.05855
G1 X200.228 Y67.168 E0.05855
G1 X201.632 Y68.399 E0.05855
G1 X202.458 Y70.074 E0.05855
G1 X202.580 Y71.937 E0.05855
G1 X201.980 Y73.705 E0.05855
G1 X200.748 Y75.109 E0.05855
G1 X199.074 Y75.935 E0.05855
G1 X197.761 Y76.021 E0.04126
G1 X194.663 Y81.386 E0.19423
G1 X235.580 Y105.009 E1.48137
G1 X194.695 Y128.614 E1.48023
G1 X197.761 Y133.924 E0.19225
G1 X199.074 Y134.010 E0.04126
G1 X200.748 Y134.836 E0.05855
G1 X201.980 Y136.240 E0.05855
G1 X202.580 Y138.008 E0.05855
G1 X202.458 Y139.871 E0.05855
G1 X201.632 Y141.546 E0.05855
G1 X200.228 Y142.778 E0.05855
G1 X198.460 Y143.378 E0.05855
G1 X196.596 Y143.256 E0.05855
G1 X194.922 Y142.430 E0.05855
G1 X193.690 Y141.026 E0.05855
G1 X193.090 Y139.258 E0.05855
G1 X193.212 Y137.394 E0.05855
G1 X193.794 Y136.214 E0.04126
G1 X190.729 Y130.904 E0.19224
G1 X108.092 Y178.614 E2.99183
G1 X111.159 Y183.924 E0.19225
G1 X112.471 Y184.010 E0.04124
G1 X114.146 Y184.836 E0.05856
G1 X115.377 Y186.240 E0.05854
G1 X115.977 Y188.008 E0.05855
G1 X115.855 Y189.871 E0.05855
G1 X115.029 Y191.546 E0.05855
G1 X113.625 Y192.778 E0.05856
G1 X111.857 Y193.378 E0.05854
G1 X109.994 Y193.256 E0.05856
G1 X108.319 Y192.430 E0.05856
G1 X107.088 Y191.026 E0.05854
G1 X106.488 Y189.258 E0.05855
G1 X106.610 Y187.394 E0.05855
G1 X107.191 Y186.214 E0.04125
G1 X104.126 Y180.904 E0.19224
G1 X74.945 Y197.752 E1.05649
G1 X72.922 Y194.248 E0.12686
G1 X70.242 Y195.795 E0.09702
G1 X59.454 Y189.566 E0.39058
G1 X59.454 Y177.108 E0.39060
G1 X62.133 Y175.561 E0.09699
G1 X57.840 Y168.126 E0.26920
G1 X55.161 Y169.673 E0.09699
G1 X44.372 Y163.444 E0.39061
G1 X44.372 Y150.987 E0.39060
G1 X47.052 Y149.440 E0.09702
G1 X42.759 Y142.005 E0.26920
G1 X40.080 Y143.552 E0.09699
G1 X29.291 Y137.323 E0.39061
G1 X29.291 Y124.865 E0.39060
G1 X31.971 Y123.318 E0.09702
G1 X27.678 Y115.883 E0.26920
G1 X24.999 Y117.430 E0.09699
G1 X14.210 Y111.201 E0.39061
G1 X14.210 Y98.744 E0.39060
G1 X24.999 Y92.515 E0.39061
G1 X27.678 Y94.062 E0.09699
G1 X31.971 Y86.627 E0.26920
G1 X29.291 Y85.080 E0.09702
G1 X29.291 Y72.622 E0.39060
G1 X40.080 Y66.394 E0.39061
G1 X42.759 Y67.940 E0.09699
G1 X47.052 Y60.505 E0.26920
G1 X44.372 Y58.958 E0.09702
G1 X44.372 Y46.501 E0.39060
G1 X55.161 Y40.272 E0.39061
G1 X57.840 Y41.819 E0.09699
G1 X62.133 Y34.384 E0.26920
G1 X59.454 Y32.837 E0.09699
G1 X59.454 Y20.379 E0.39060
G1 X70.242 Y14.151 E0.39058
G1 X72.922 Y15.697 E0.09702
G1 X74.913 Y12.248 E0.12487
G1 X104.042 Y29.066 E1.05461
G1 X104.448 Y29.282 F10800.000
G1 F8640
G1 X105.715 Y26.232 E-0.76000
G1 E-0.04000 F2100.00000
G1 Z0.800 F10800.000
G1 X102.154 Y28.542
G1 Z0.200
G1 E0.80000 F2100.00000
G1 F1200
G1 X198.987 Y125.374 E4.29520
M73 Q0 S278
M73 P0 R270
G1 X199.325 Y125.179 E0.01225
G1 X103.880 Y29.734 E4.23365
G1 X104.336 Y29.997 E0.01651
G1 X104.460 Y29.781 E0.00783
G1 X199.663 Y124.984 E4.22291
G1 X200.001 Y124.788 E0.01225
G1 X104.656 Y29.443 E4.22925
G1 X104.851 Y29.105 E0.01225
G1 X200.464 Y124.717 E4.24110
G1 X200.802 Y124.522 F10800.000
G1 F1200
G1 X108.465 Y32.186 E4.09579
G1 F8640
G1 X110.793 Y34.513 E-0.76000
G1 E-0.04000 F2100.00000
G1 Z0.800 F10800.000
G1 X107.557 Y31.277
G1 Z0.200
G1 E0.80000 F2100.00000
G1 F1200
G1 X105.046 Y28.767 E0.11137
G1 X105.241 Y28.428 E0.01225
G1 X107.628 Y30.815 E0.10586
G1 X107.823 Y30.477 E0.01225
G1 X105.437 Y28.090 E0.10587
G1 X105.632 Y27.752 E0.01225
G1 X108.019 Y30.139 E0.10587
G1 X108.214 Y29.801 E0.01225
G1 X105.827 Y27.414 E0.10587
G1 X106.022 Y27.076 E0.01225
G1 X108.409 Y29.462 E0.10587
G1 X108.605 Y29.124 E0.01225
G1 X106.218 Y26.737 E0.10587
G1 X106.413 Y26.399 E0.01225
G1 X108.800 Y28.786 E0.10588
G1 X108.995 Y28.448 E0.01225
G1 X106.608 Y26.061 E0.10588
G1 X106.803 Y25.723 E0.01225
G1 X109.190 Y28.110 E0.10588
G1 X109.386 Y27.772 E0.01225
G1 X106.999 Y25.385 E0.10588
G1 X107.194 Y25.046 E0.01225
G1 X109.581 Y27.433 E0.10588
G1 X109.776 Y27.095 E0.01225
G1 X107.389 Y24.708 E0.10588
G1 X107.584 Y24.370 E0.01225
G1 X109.972 Y26.757 E0.10589
G1 X110.167 Y26.419 E0.01225
G1 X107.780 Y24.032 E0.10589
G1 X107.939 Y23.756 E0.00999
G1 X107.843 Y23.562 E0.00678
G1 X110.486 Y26.205 E0.11723
G1 F8640
G1 X108.159 Y23.878 E-0.76000
G1 E-0.04000 F2100.00000
G1 Z0.800 F10800.000
G1 X107.083 Y22.268
G1 Z0.200
G1 E0.80000 F2100.00000
G1 F1200
G1 X110.557 Y25.743 E0.15413
G1 X110.753 Y25.404 E0.01225
G1 X107.227 Y21.879 E0.15638
G1 X107.190 Y21.308 E0.01795
G1 X111.237 Y25.355 E0.17951
G1 X111.737 Y25.322 E0.01574
G1 X107.164 Y20.749 E0.20286
G1 X107.299 Y20.350 E0.01319
G1 X112.238 Y25.289 E0.21908
G1 X112.297 Y25.285 E0.00185
G1 X112.612 Y25.130 E0.01102
G1 X107.434 Y19.952 E0.22968
G1 X107.569 Y19.554 E0.01319
G1 X112.969 Y24.954 E0.23953
G1 X113.327 Y24.777 E0.01249
G1 X107.733 Y19.184 E0.24811
G1 X107.982 Y18.900 E0.01186
G1 X113.684 Y24.601 E0.25290
G1 X113.736 Y24.575 E0.00184
G1 X113.949 Y24.333 E0.01011
G1 X108.232 Y18.616 E0.25360
G1 X108.481 Y18.331 E0.01186
G1 X114.198 Y24.049 E0.25360
G1 X114.447 Y23.764 E0.01186
G1 X108.731 Y18.048 E0.25357
G1 X109.088 Y17.872 E0.01249
G1 X114.697 Y23.480 E0.24878
G1 X114.794 Y23.369 E0.00464
G1 X114.876 Y23.127 E0.00802
G1 X109.445 Y17.696 E0.24090
G1 X109.803 Y17.519 E0.01249
G1 X115.012 Y22.728 E0.23105
G1 X115.147 Y22.330 E0.01319
G1 X110.160 Y17.343 E0.22120
G1 X110.657 Y17.307 E0.01564
G1 X115.282 Y21.932 E0.20513
G1 X115.310 Y21.849 E0.00274
G1 X115.281 Y21.397 E0.01421
G1 X111.158 Y17.274 E0.18286
G1 X111.659 Y17.242 E0.01574
G1 X115.243 Y20.826 E0.15900
G1 X115.206 Y20.256 E0.01794
G1 X112.398 Y17.448 E0.12454
G1 X113.206 Y17.722 E0.02675
G1 X115.067 Y19.583 E0.08254
G1 F8640
G1 X113.206 Y17.722 E-0.60760
G1 X112.581 Y17.510 E-0.15240
G1 E-0.04000 F2100.00000
G1 Z0.800 F10800.000
G1 X109.727 Y32.914
G1 Z0.200
G1 E0.80000 F2100.00000
G1 F1200
G1 X201.140 Y124.327 E4.05480
G1 X201.478 Y124.132 F10800.000
G1 F1200
G1 X110.989 Y33.643 E4.01382
G1 F8640
G1 X113.317 Y35.970 E-0.76000
G1 E-0.04000 F2100.00000
G1 Z0.800 F10800.000
G1 X112.252 Y34.372
G1 Z0.200
G1 E0.80000 F2100.00000
G1 F1200
G1 X201.816 Y123.936 E3.97283
M73 Q1 S277
M73 P1 R269
G1 X202.155 Y123.741 F10800.000
G1 F1200
G1 X113.514 Y35.100 E3.93185
G1 F8640
G1 X115.841 Y37.428 E-0.76000
G1 E-0.04000 F2100.00000
G1 Z0.800 F10800.000
G1 X114.776 Y35.829
G1 Z0.200
G1 E0.80000 F2100.00000
G1 F1200
G1 X202.493 Y123.546 E3.89086
G1 X202.831 Y123.351 F10800.000
G1 F1200
G1 X116.038 Y36.558 E3.84988
G1 F8640
G1 X118.366 Y38.885 E-0.76000
G1 E-0.04000 F2100.00000
G1 Z0.800 F10800.000
G1 X117.300 Y37.287
G1 Z0.200
G1 E0.80000 F2100.00000
G1 F1200
G1 X203.169 Y123.155 E3.80889
G1 X203.507 Y122.960 F10800.000
G1 F1200
G1 X118.562 Y38.015 E3.76791
G1 F8640
G1 X120.890 Y40.343 E-0.76000
G1 E-0.04000 F2100.00000
G1 Z0.800 F10800.000
G1 X119.825 Y38.744
G1 Z0.200
G1 E0.80000 F2100.00000
G1 F1200
G1 X203.846 Y122.765 E3.72692
G1 X204.184 Y122.570 F10800.000
G1 F1200
G1 X121.087 Y39.473 E3.68594
G1 F8640
G1 X123.414 Y41.800 E-0.76000
G1 E-0.04000 F2100.00000
G1 Z0.800 F10800.000
G1 X122.349 Y40.201
G1 Z0.200
G1 E0.80000 F2100.00000
G1 F1200
G1 X204.522 Y122.374 E3.64496
G1 X204.860 Y122.179 F10800.000
G1 F1200
G1 X123.611 Y40.930 E3.60397
G1 F8640
G1 X125.939 Y43.258 E-0.76000
G1 E-0.04000 F2100.00000
G1 Z0.800 F10800.000
G1 X124.873 Y41.659
G1 Z0.200
G1 E0.80000 F2100.00000
G1 F1200
G1 X205.198 Y121.984 E3.56299
M73 Q1 S276
M73 P1 R268
G1 X205.537 Y121.789 F10800.000
G1 F1200
G1 X126.136 Y42.388 E3.52200
G1 F8640
G1 X128.463 Y44.715 E-0.76000
G1 E-0.04000 F2100.00000
G1 Z0.800 F10800.000
G1 X127.398 Y43.116
G1 Z0.200
G1 E0.80000 F2100.00000
G1 F1200
G1 X205.875 Y121.593 E3.48102
G1 X206.213 Y121.398 F10800.000
G1 F1200
G1 X128.660 Y43.845 E3.44003
G1 F8640
G1 X130.987 Y46.172 E-0.76000
G1 E-0.04000 F2100.00000
G1 Z0.800 F10800.000
G1 X129.922 Y44.574
G1 Z0.200
G1 E0.80000 F2100.00000
G1 F1200
G1 X206.551 Y121.203 E3.39905
G1 X206.889 Y121.008 F10800.000
G1 F1200
G1 X131.184 Y45.302 E3.35806
G1 F8640
G1 X133.512 Y47.630 E-0.76000
G1 E-0.04000 F2100.00000
G1 Z0.800 F10800.000
G1 X132.446 Y46.031
G1 Z0.200
G1 E0.80000 F2100.00000
G1 F1200
G1 X207.228 Y120.812 E3.31708
G1 X207.566 Y120.617 F10800.000
G1 F1200
G1 X133.709 Y46.760 E3.27609
G1 F8640
G1 X136.036 Y49.087 E-0.76000
G1 E-0.04000 F2100.00000
G1 Z0.800 F10800.000
G1 X134.971 Y47.489
G1 Z0.200
G1 E0.80000 F2100.00000
G1 F1200
G1 X207.904 Y120.422 E3.23511
G1 X208.242 Y120.226 F10800.000
G1 F1200
G1 X136.233 Y48.217 E3.19412
G1 F8640
G1 X138.560 Y50.545 E-0.76000
G1 E-0.04000 F2100.00000
G1 Z0.800 F10800.000
G1 X137.495 Y48.946
G1 Z0.200
G1 E0.80000 F2100.00000
G1 F1200
G1 X208.580 Y120.031 E3.15314
G1 X208.919 Y119.836 F10800.000
G1 F1200
G1 X138.757 Y49.675 E3.11215
M73 Q1 S275
M73 P1 R267
G1 F8640
G1 X141.085 Y52.002 E-0.76000
G1 E-0.04000 F2100.00000
G1 Z0.800 F10800.000
G1 X140.019 Y50.403
G1 Z0.200
G1 E0.80000 F2100.00000
G1 F1200
G1 X209.257 Y119.641 E3.07117
G1 X209.595 Y119.445 F10800.000
G1 F1200
G1 X141.282 Y51.132 E3.03018
G1 F8640
G1 X143.609 Y53.460 E-0.76000
G1 E-0.04000 F2100.00000
G1 Z0.800 F10800.000
G1 X142.544 Y51.861
G1 Z0.200
G1 E0.80000 F2100.00000
G1 F1200
G1 X209.933 Y119.250 E2.98920
G1 X210.271 Y119.055 F10800.000
G1 F1200
G1 X143.806 Y52.590 E2.94821
G1 F8640
G1 X146.133 Y54.917 E-0.76000
G1 E-0.04000 F2100.00000
G1 Z0.800 F10800.000
G1 X145.068 Y53.318
G1 Z0.200
G1 E0.80000 F2100.00000
G1 F1200
G1 X210.609 Y118.860 E2.90723
G1 X210.948 Y118.664 F10800.000
G1 F1200
G1 X146.330 Y54.047 E2.86624
G1 F8640
G1 X148.658 Y56.374 E-0.76000
G1 E-0.04000 F2100.00000
G1 Z0.800 F10800.000
G1 X147.592 Y54.776
G1 Z0.200
G1 E0.80000 F2100.00000
G1 F1200
G1 X211.286 Y118.469 E2.82526
G1 X211.624 Y118.274 F10800.000
G1 F1200
